!!!!SEGMENT: pl-cz--iii-109--003_dankowski-adalbert--missa-c-patrem.krn
!!!cenid: 18xx:782
!!!COM: Dankowski, Adalbert
!!!COM-rismid: pe30000793
!!!CDT: ~1760-~1836
!!!CNT: Polish
!!!OPR: Missa C
!!!OTL: Patrem
!!!OMV: 003
!!!PDT:
!!!AGN: Sacred; Vespers
!!!SMS-siglum: PL-CZ
!!!SMS-shelfmark: III-109
!!!SMS-shelfwork: 001-003 M
!!!SMS-variant:
!!!SMS-altvar:
!!!NIFC-rismid: 300000107
!!!system-decoration: [(s1,s2)][(s3,s4)][(s5,s6,s7,s8)][(s9,s10)]s11
!!!key:
**kern	**dynam	**kern	**dynam	**kern	**dynam	**kern	**text	**kern	**text	**kern	**text	**kern	**text	**kern	**kern	**kern	**dynam	**kern	**dynam
*part11	*part11	*part10	*part10	*part9	*part9	*part8	*part8	*part7	*part7	*part6	*part6	*part5	*part5	*part4	*part3	*part2	*part2	*part1	*part1
*staff11	*	*staff10	*	*staff9	*	*staff8	*staff8	*staff7	*staff7	*staff6	*staff6	*staff5	*staff5	*staff4	*staff3	*staff2	*	*staff1	*
*Iorgan	*	*Ivioln	*	*Ivioln	*	*Iempty	*	*Itenor	*	*Ialto	*	*Ivox	*	*Iempty	*Iempty	*Ioboe	*	*Ioboe	*
*I"Organo	*	*I"Violino Secondo	*	*I"Violino Primo	*	*I"Baſso	*	*I"Tenore	*	*I"Alto	*	*I"Canto	*	*I"Cornu Secondo Ex C:	*I"Cornu Primo Ex C:	*I"Oboe Secondo	*	*I"Oboe Primo	*
*I'org	*	*I'vl II	*	*I'vl I	*	*I'B	*	*I'T	*	*I'A	*	*I'C	*	*I'cor II	*I'cor I	*I'ob II	*	*I'ob I	*
*clefF4	*	*clefG2	*	*clefG2	*	*clefF4	*	*clefC4	*	*clefC3	*	*clefC1	*	*clefG2	*clefG2	*clefG2	*	*clefG2	*
*	*	*	*	*	*	*	*	*	*	*	*	*	*	*Trd0c0	*Trd0c0	*	*	*	*
*k[]	*	*k[]	*	*k[]	*	*k[]	*	*k[]	*	*k[]	*	*k[]	*	*k[]	*k[]	*k[]	*	*k[]	*
*c:	*	*c:	*	*c:	*	*c:	*	*c:	*	*c:	*	*c:	*	*c:	*c:	*c:	*	*c:	*
*M2/4	*	*M2/4	*	*M2/4	*	*M2/4	*	*M2/4	*	*M2/4	*	*M2/4	*	*M2/4	*M2/4	*M2/4	*	*M2/4	*
=1	=1	=1	=1	=1	=1	=1	=1	=1	=1	=1	=1	=1	=1	=1	=1	=1	=1	=1	=1
!!LO:TX:a:Bi:t=moderatto
!LO:TX:a:Bi:t=tutti	!	!	!	!	!	!	!	!	!	!	!	!	!	!	!	!	!	!LO:TX:a:t=P:problem:f = f:global	!
!	!	!	!LO:DY:a	!	!LO:DY:a	!	!	!	!	!	!	!	!	!	!	!	!	!	!LO:DY:a
8C/L	.	(8.cc\L	f	8.ee\L	f	4c\	Pa-	4G/	Pa-	4e\	Pa-	4cc\	Pa-	4cc\	4ee\	(8.cc\L	.	8.ee\L	f
8C/	.	.	.	.	.	.	.	.	.	.	.	.	.	.	.	.	.	.	.
.	.	16dd\Jk)	.	16ff\Jk	.	.	.	.	.	.	.	.	.	.	.	16dd\Jk)	.	16ff\Jk	.
!	!	!	!	!	!	!	!	!	!	!	!	!	!	!	!	!LO:TX:a:t=P:problem:niejednoznaczny zapis artykulacji [przyjęto staccatissimo]:global	!	!	!
8C/	.	(16ff\LL	.	(16aa\LL	.	8c\	-trem	8G/	-trem	8e\	-trem	8cc\	-trem	4cc\	4ee\	8ee`\L	.	8gg\L	.
.	.	16ee\)	.	16gg\)	.	.	.	.	.	.	.	.	.	.	.	.	.	.	.
8C/J	.	(16dd\	.	(16ff\	.	8c\	om-	8G/	om-	8e\	om-	8cc\	om-	.	.	8ee`\J	.	8gg\J	.
.	.	16cc\JJ)	.	16ee\JJ)	.	.	.	.	.	.	.	.	.	.	.	.	.	.	.
=2	=2	=2	=2	=2	=2	=2	=2	=2	=2	=2	=2	=2	=2	=2	=2	=2	=2	=2	=2
!LO:TX:a:t=P:problem:mixed beam	!	!	!	!	!	!	!	!	!	!	!	!	!	!	!	!	!	!	!
.	.	8qcc/	.	.	.	.	.	.	.	.	.	.	.	.	.	.	.	.	.
8F\L	.	8dd\L	.	(16ff\LL	.	8F\	-ni-	8A/	-ni-	8f\	-ni-	8dd\	-ni-	4dd\	4ff\	4dd\	.	4ff\	.
.	.	.	.	16aa\)	.	.	.	.	.	.	.	.	.	.	.	.	.	.	.
8F\	.	16ff\L	.	(16dd\	.	8F\	-po-	8A/	-po-	8f\	-po-	8dd\	-po-	.	.	.	.	.	.
.	.	16dd\JJ	.	16ff\JJ)	.	.	.	.	.	.	.	.	.	.	.	.	.	.	.
!	!	!	!	!LO:TX:a:t=P:problem:niejednoznaczny zapis artykulacji [przyjęto staccatissimo]:global	!	!LO:TX:a:t=P:problem:mixed beam	!	!	!	!	!	!	!	!	!	!	!	!	!
8G\	.	8cc\L	.	8ee`\L	.	8G\L	-ten-	4G/	-ten-	8e\L	-ten-	8cc\L	-ten-	8cc\L	8ee\L	8cc\L	.	8ee\L	.
8GG\J	.	8b\J	.	8dd`\J	.	8GG\J	.	.	.	8d\J	.	8b\J	.	8g\J	8dd\J	8b\J	.	8dd\J	.
=3	=3	=3	=3	=3	=3	=3	=3	=3	=3	=3	=3	=3	=3	=3	=3	=3	=3	=3	=3
8C/L	.	(8.cc\L	.	(8.ee\L	.	8C/	-tem	8G/	-tem	8e\	-tem	8cc\	-tem	4e/	4cc\	(8.cc\L	.	8.ee\L	.
8C/	.	.	.	.	.	8c\	fac-	8G/	fac-	8e\	fac-	8cc\	fac-	.	.	.	.	.	.
.	.	16dd\Jk)	.	16ff\Jk)	.	.	.	.	.	.	.	.	.	.	.	16dd\Jk)	.	16ff\Jk	.
8C/	.	(16ff\LL	.	16aa\LL	.	8c\	-to-	8G/	-to-	8e\	-to-	8cc\	-to-	4cc\	4ee\	8ee`\L	.	8gg\L	.
.	.	16ee\)	.	16gg\	.	.	.	.	.	.	.	.	.	.	.	.	.	.	.
8C/J	.	(16dd\	.	16ff\	.	8c\	-rem	8G/	-rem	8e\	-rem	8cc\	-rem	.	.	8ee`\J	.	8gg\J	.
.	.	16cc\JJ)	.	16ee\JJ	.	.	.	.	.	.	.	.	.	.	.	.	.	.	.
=4	=4	=4	=4	=4	=4	=4	=4	=4	=4	=4	=4	=4	=4	=4	=4	=4	=4	=4	=4
!LO:TX:a:t=P:problem:mixed beam	!	!	!	!	!	!	!	!	!	!	!	!	!	!	!	!	!	!	!
.	.	8qcc/	.	.	.	.	.	.	.	.	.	.	.	.	.	.	.	.	.
8F\L	.	8dd\L	.	16ff\LL	.	8F\	Cae-	8A/	Cae-	8f\	Cae-	8dd\	Cae-	4dd\	4ff\	4dd\	.	4ff\	.
.	.	.	.	16aa\	.	.	.	.	.	.	.	.	.	.	.	.	.	.	.
8F\	.	16ff\L	.	16dd\	.	16F\	-li	16A/	-li	16f\	-li	16dd\	-li	.	.	.	.	.	.
.	.	16dd\JJ	.	16ff\JJ	.	16F\	(et)	16A/	(et)	16f\	(et)	16dd\	(et)	.	.	.	.	.	.
!	!	!	!	!	!	!LO:TX:a:t=P:problem:mixed beam	!	!	!	!	!	!	!	!	!	!	!	!	!
8G\	.	8cc\L	.	8ee\L	.	8G\L	ter-	4G/	ter-	8e\L	ter-	8cc\L	ter-	8cc\L	8ee\L	8cc\L	.	8.ee\L	.
8GG\J	.	8b\J	.	8dd\J	.	8GG\J	.	.	.	8d\J	.	8b\J	.	8g\J	8dd\J	8b\J	.	.	.
.	.	.	.	.	.	.	.	.	.	.	.	.	.	.	.	.	.	16dd\Jk	.
=5	=5	=5	=5	=5	=5	=5	=5	=5	=5	=5	=5	=5	=5	=5	=5	=5	=5	=5	=5
*	*	*	*	*	*	*	*	*	*	*	*	*	*	*	*2\right	*	*	*	*
*tremolo	*	*	*	*	*	*	*	*	*	*	*	*	*	*	*	*	*	*	*
8C/L	.	(8.cc\L	.	(8.ee\L	.	8C/	-rae	8G/	-rae	4e\	-rae	4cc\	-rae	4e/	2cc\	4cc\	.	4ee\	.
8C/	.	.	.	.	.	16c\	Vi-	4c\	Vi-	.	.	.	.	.	.	.	.	.	.
.	.	16dd\Jk)	.	16ff\Jk)	.	16c\	-ſi-	.	.	.	.	.	.	.	.	.	.	.	.
8C/	.	16ee\LL	.	16gg\LL	.	8c\	-bi-	.	.	8g\	Vi-	8ee\	Vi-	4c/	.	4ee\	.	4gg\	.
.	.	16cc\	.	16ee\	.	.	.	.	.	.	.	.	.	.	.	.	.	.	.
8C/J	.	16dd\	.	16ff\	.	16c\	-li-	8c\	-ſi-	8g\	-ſi-	8ee\	-ſi-	.	.	.	.	.	.
.	.	16ee\JJ	.	16gg\JJ	.	16c\	-um	.	.	.	.	.	.	.	.	.	.	.	.
*Xtremolo	*	*	*	*	*	*	*	*	*	*	*	*	*	*	*	*	*	*	*
=6	=6	=6	=6	=6	=6	=6	=6	=6	=6	=6	=6	=6	=6	=6	=6	=6	=6	=6	=6
!LO:TX:a:t=P:problem:mixed beam	!	!	!	!	!	!	!	!	!	!	!	!	!	!	!	!	!	!	!
8c\L	.	(16ee\LL	.	(16gg#X\LL	.	4c\	om-	4c\	-bi-	4a\	-bi-	4ff\	-bi-	2c/	2cc\	4ff\	.	4aa\	.
.	.	16ff\J)	.	16aa\J)	.	.	.	.	.	.	.	.	.	.	.	.	.	.	.
!	!	!	!	!LO:TX:a:t=P:problem:niejednoznaczny zapis łuku	!	!	!	!	!	!	!	!	!	!	!	!	!	!	!
8c\	.	(8.ff\J	.	(8.aa\J	.	.	.	.	.	.	.	.	.	.	.	.	.	.	.
8C\	.	.	.	.	.	8c\	-ni-	8c\	-li-	8g\	-li-	8ee\	-li-	.	.	4ee\	.	4gg\	.
.	.	16ee\LL)	.	16ggn\LL	.	.	.	.	.	.	.	.	.	.	.	.	.	.	.
8C\J	.	(16dd\	.	16ff\)	.	8c\	-um	8c\	-um	8g\	-um	8ee\	-um	.	.	.	.	.	.
.	.	16cc\JJ)	.	16ee\JJ	.	.	.	.	.	.	.	.	.	.	.	.	.	.	.
=7	=7	=7	=7	=7	=7	=7	=7	=7	=7	=7	=7	=7	=7	=7	=7	=7	=7	=7	=7
!LO:TX:a:t=P:problem:mixed beam	!	!	!	!	!	!	!	!	!	!	!	!	!	!	!	!	!	!	!
8G\L	.	16cc\LL	.	(16ee\LL	.	4G\	(et)	8B\	om-	8f\	om-	8dd\	om-	4g/	4dd\	4dd\	.	4ff\	.
.	.	16b\	.	16dd\)	.	.	.	.	.	.	.	.	.	.	.	.	.	.	.
8GG\	.	16b\	.	(16gg\	.	.	.	16B\	-ni-	16f\	-ni-	16dd\	-ni-	.	.	.	.	.	.
.	.	16dd\JJ	.	16ff\JJ)	.	.	.	16B\	-um	16f\	-um	16dd\	-um	.	.	.	.	.	.
8C\	.	16dd\LL	.	(16ff\LL	.	4c\	in-	8c\	(et)	8e\	(et)	8cc\	(et)	4cc\	4ee\	4cc\	.	4ee\	.
.	.	16cc\	.	16ee\)	.	.	.	.	.	.	.	.	.	.	.	.	.	.	.
8C\J	.	16b\	.	(16dd\	.	.	.	8c\	in-	8e\	in-	8cc\	in-	.	.	.	.	.	.
.	.	16cc\JJ	.	16ee\JJ)	.	.	.	.	.	.	.	.	.	.	.	.	.	.	.
=8	=8	=8	=8	=8	=8	=8	=8	=8	=8	=8	=8	=8	=8	=8	=8	=8	=8	=8	=8
!LO:TX:a:t=P:problem:mixed beam	!	!	!	!	!	!	!	!	!	!	!	!	!	!	!	!	!	!	!
8F\L	.	8dd\L	.	16ff\LL	.	8F\	-Vi-	8A/	-Vi-	8f\	-Vi-	8dd\	-Vi-	4dd\	4ff\	4dd\	.	4ff\	.
.	.	.	.	16dd\	.	.	.	.	.	.	.	.	.	.	.	.	.	.	.
8F\	.	16ff\L	.	16aa\	.	8F\	-ſi-	8A/	-ſi-	8f\	-ſi-	8dd\	-ſi-	.	.	.	.	.	.
.	.	16dd\JJ	.	16ff\JJ	.	.	.	.	.	.	.	.	.	.	.	.	.	.	.
8G\	.	16dd\LL	.	16ff\LL	.	8G\	-bi-	8G/	-bi-	8e\	-bi-	8cc\	-bi-	8cc/L	8ee\L	8cc\L	.	8ee\L	.
.	.	16cc\	.	16ee\	.	.	.	.	.	.	.	.	.	.	.	.	.	.	.
8GG\J	.	16cc\	.	16ee\	.	8G\	-li-	8G/	-li-	8d\	-li-	8b\	-li-	8g/J	8dd\J	8b\J	.	8dd\J	.
.	.	16b\JJ	.	16dd\JJ	.	.	.	.	.	.	.	.	.	.	.	.	.	.	.
=9	=9	=9	=9	=9	=9	=9	=9	=9	=9	=9	=9	=9	=9	=9	=9	=9	=9	=9	=9
!LO:TX:a:t=P:problem:mixed beam	!	!	!	!	!	!	!	!	!	!	!	!	!	!	!	!	!	!	!
8C\L	.	8g/L	.	16cc\LL	.	8C/	-um	8G/	-um	8e\	-um	8cc\	-um	2e/	2cc\	4cc\	.	4ee\	.
.	.	.	.	16ee\	.	.	.	.	.	.	.	.	.	.	.	.	.	.	.
8c\	.	8g/	.	16ee\	.	16c\	(et)	16c\	(et)	16g\	(et)	16ee\	(et)	.	.	.	.	.	.
.	.	.	.	16ee\JJ	.	16c\	in	16c\	in	16g\	in	16ee\	in	.	.	.	.	.	.
8c\	.	8g/	.	16ee\LL	.	8c\	u-	8c\	u-	8g\	u-	8ee\	u-	.	.	4ee\	.	4gg\	.
.	.	.	.	16cc\	.	.	.	.	.	.	.	.	.	.	.	.	.	.	.
8c\J	.	8g/J	.	16gg\	.	8c\	-num	8c\	-num	8g\	-num	8ee\	-num	.	.	.	.	.	.
.	.	.	.	16ee\JJ	.	.	.	.	.	.	.	.	.	.	.	.	.	.	.
=10	=10	=10	=10	=10	=10	=10	=10	=10	=10	=10	=10	=10	=10	=10	=10	=10	=10	=10	=10
*	*	*	*	*	*	*	*	*	*	*	*	*	*	*	*	*2\right	*	*2\right	*
*	*	*tremolo	*	*	*	*	*	*	*	*	*	*	*	*	*	*	*	*	*
8B\L	.	8g/L	.	16ee\LL	.	8B\	Do-	8d\	Do-	8g\	Do-	8dd\	Do-	2g/	2dd\	2dd\	.	2gg\	.
.	.	.	.	16dd\	.	.	.	.	.	.	.	.	.	.	.	.	.	.	.
8B\	.	8g/	.	16dd\	.	16B\	-mi-	16d\	-mi-	16g\	-mi-	16dd\	-mi-	.	.	.	.	.	.
.	.	.	.	16dd\JJ	.	16B\	-num	16d\	-num	16g\	-num	16dd\	-num	.	.	.	.	.	.
8B\	.	8g/	.	16dd\LL	.	8B\	Je-	8d\	Je-	8g\	Je-	8dd\	Je-	.	.	.	.	.	.
.	.	.	.	16b\	.	.	.	.	.	.	.	.	.	.	.	.	.	.	.
8B\J	.	8g/J	.	16gg\	.	8B\	-ſum	8d\	-ſum	8g\	-ſum	8dd\	-ſum	.	.	.	.	.	.
.	.	.	.	16dd\JJ	.	.	.	.	.	.	.	.	.	.	.	.	.	.	.
*	*	*Xtremolo	*	*	*	*	*	*	*	*	*	*	*	*	*	*	*	*	*
=11	=11	=11	=11	=11	=11	=11	=11	=11	=11	=11	=11	=11	=11	=11	=11	=11	=11	=11	=11
*	*	*	*	*	*	*	*	*	*	*	*	*	*	*2\right	*	*	*	*	*
8A\L	.	8f#X/L	.	16cc\LL	.	4A\	Chriſ-	4d\	Chriſ-	4f#X\	Chriſ-	4cc\	Chriſ-	2dd\	2dd\	2cc\	.	2ff#X\	.
.	.	.	.	16cc\	.	.	.	.	.	.	.	.	.	.	.	.	.	.	.
8A\	.	8f#/	.	16ff#X\	.	.	.	.	.	.	.	.	.	.	.	.	.	.	.
.	.	.	.	16gg\JJ	.	.	.	.	.	.	.	.	.	.	.	.	.	.	.
8A\	.	8f#/	.	16aa\LL	.	4A\	-tum	4d\	-tum	4f#\	-tum	4cc\	-tum	.	.	.	.	.	.
.	.	.	.	16ff#\	.	.	.	.	.	.	.	.	.	.	.	.	.	.	.
8A\J	.	8f#/J	.	16dd\	.	.	.	.	.	.	.	.	.	.	.	.	.	.	.
.	.	.	.	16cc\JJ	.	.	.	.	.	.	.	.	.	.	.	.	.	.	.
=12	=12	=12	=12	=12	=12	=12	=12	=12	=12	=12	=12	=12	=12	=12	=12	=12	=12	=12	=12
8G\L	.	8g/L	.	16cc\LL	.	4G\	fi-	4d\	fi-	4g\	fi-	4b\	fi-	2g/	2dd\	2b\	.	2gg\	.
.	.	.	.	16b\J	.	.	.	.	.	.	.	.	.	.	.	.	.	.	.
8G\	.	8g/	.	8b\J	.	.	.	.	.	.	.	.	.	.	.	.	.	.	.
8G\	.	8b/	.	16gg\LL	.	8G\	-li-	8d\	-li-	8b\	-li-	8dd\	-li-	.	.	.	.	.	.
.	.	.	.	16ff#X\	.	.	.	.	.	.	.	.	.	.	.	.	.	.	.
8G\J	.	8b/J	.	16ee\	.	8G\	-um	8d\	-um	8b\	-um	8cc\	-um	.	.	.	.	.	.
.	.	.	.	16dd\JJ	.	.	.	.	.	.	.	.	.	.	.	.	.	.	.
=13	=13	=13	=13	=13	=13	=13	=13	=13	=13	=13	=13	=13	=13	=13	=13	=13	=13	=13	=13
8F#X\L	.	8a/L	.	8.dd\L	.	4F#X\	De-	4d\	De-	4a\	De-	4cc\	De-	4dd\	2dd\	4cc\	.	4aa\	.
8F#\	.	8a/J	.	.	.	.	.	.	.	.	.	.	.	.	.	.	.	.	.
.	.	.	.	16cc\Jk	.	.	.	.	.	.	.	.	.	.	.	.	.	.	.
8G\	.	16a/LL	.	16cc\LL	.	4G\	-i	4d\	-i	4g\	-i	4b\	-i	4g/	.	4b\	.	4gg\	.
.	.	16g/	.	16b\	.	.	.	.	.	.	.	.	.	.	.	.	.	.	.
8G\J	.	16g/	.	16b\	.	.	.	.	.	.	.	.	.	.	.	.	.	.	.
.	.	16b/JJ	.	16dd\JJ	.	.	.	.	.	.	.	.	.	.	.	.	.	.	.
=14	=14	=14	=14	=14	=14	=14	=14	=14	=14	=14	=14	=14	=14	=14	=14	=14	=14	=14	=14
!LO:TX:a:t=P:problem:mixed beam	!	!	!	!	!	!	!	!	!	!	!	!	!	!	!	!	!	!	!
8c\L	.	8a/L	.	8cc\L	.	8c\	u-	8e\	u-	8a\	u-	8cc\	u-	4cc\	4ee\	4cc\	.	4aa\	.
!	!	!LO:TX:a:t=P:problem:klamra łukowa z numerem:global	!	!LO:TX:a:t=P:problem:klamra łukowa z numerem:global	!	!	!	!	!	!	!	!	!	!	!	!	!	!	!
8c\	.	24cc/L	.	24ee\L	.	8c\	-ni-	8e\	-ni-	8a\	-ni-	8cc\	-ni-	.	.	.	.	.	.
.	.	24b/	.	24dd\	.	.	.	.	.	.	.	.	.	.	.	.	.	.	.
.	.	24a/JJ	.	24cc\JJ	.	.	.	.	.	.	.	.	.	.	.	.	.	.	.
8d\	.	8g/L	.	8b\L	.	8d\	-ge-	8d\	-ge-	8g\	-ge-	8b\	-ge-	8dd\L	8dd\L	8b\L	.	8gg\L	.
8D\J	.	8f#X/J	.	8a\J	.	8D\	-ni-	8d\	-ni-	8f#X\	-ni-	8a\	-ni-	8dd\J	8dd\J	8a\J	.	8ff#X\J	.
=15	=15	=15	=15	=15	=15	=15	=15	=15	=15	=15	=15	=15	=15	=15	=15	=15	=15	=15	=15
!LO:TX:a:t=Solo	!	!LO:TX:a:t=P:problem:mixed beam	!	!	!	!	!	!	!	!	!	!	!	!	!	!	!	!	!
4G\	.	8g\L	.	16b\LL	.	4G\	-tum	4d\	-tum	4g\	-tum	4b\	-tum	4g/	4dd\	4b\	.	4gg\	.
.	.	.	.	16dd\	.	.	.	.	.	.	.	.	.	.	.	.	.	.	.
.	.	16gg\L	.	16gg\	.	.	.	.	.	.	.	.	.	.	.	.	.	.	.
.	.	16gg\JJ	.	16gg\JJ	.	.	.	.	.	.	.	.	.	.	.	.	.	.	.
8r	.	16gg\LL	.	16gg\LL	.	4r	.	4r	.	4r	.	4r	.	4r	4r	4r	.	4r	.
!	!	!	!	!LO:SIC:v:s=16ff#\	!	!	!	!	!	!	!	!	!	!	!	!	!	!	!
.	.	16ff#X\	.	16ff\	.	.	.	.	.	.	.	.	.	.	.	.	.	.	.
8B\	.	16ee\	.	16ee\	.	.	.	.	.	.	.	.	.	.	.	.	.	.	.
.	.	16dd\JJ	.	16dd\JJ	.	.	.	.	.	.	.	.	.	.	.	.	.	.	.
=16	=16	=16	=16	=16	=16	=16	=16	=16	=16	=16	=16	=16	=16	=16	=16	=16	=16	=16	=16
8c\L	.	(8.ee\L	.	8.ee\L	.	2r	.	2r	.	2r	.	2r	.	4r	4r	2r	.	2r	.
16d\L	.	.	.	.	.	.	.	.	.	.	.	.	.	.	.	.	.	.	.
16c\JJ	.	16ff#X\Jk)	.	16ff#X\Jk	.	.	.	.	.	.	.	.	.	.	.	.	.	.	.
8B\L	.	16aa\LL	.	(16aa\LL	.	.	.	.	.	.	.	.	.	8r	8r	.	.	.	.
.	.	16gg\	.	16gg\)	.	.	.	.	.	.	.	.	.	.	.	.	.	.	.
8B\J	.	16ff#\	.	(16ff#\	.	.	.	.	.	.	.	.	.	8g/	8dd\	.	.	.	.
.	.	16gg\JJ	.	16gg\JJ)	.	.	.	.	.	.	.	.	.	.	.	.	.	.	.
=17	=17	=17	=17	=17	=17	=17	=17	=17	=17	=17	=17	=17	=17	=17	=17	=17	=17	=17	=17
!LO:TX:a:t=P:problem:mixed beam	!	!	!	!	!	!	!	!	!	!LO:TX:a:t=Solo:	!	!	!	!	!	!	!	!	!
8c\L	.	8ee\L	.	8ee\L	.	2r	.	2r	.	2r	.	2r	.	4cc\	4ee\	2r	.	2r	.
8c\	.	24cc\L	.	24ee\L	.	.	.	.	.	.	.	.	.	.	.	.	.	.	.
.	.	24b\	.	24dd\	.	.	.	.	.	.	.	.	.	.	.	.	.	.	.
.	.	24a\JJ	.	24cc\JJ	.	.	.	.	.	.	.	.	.	.	.	.	.	.	.
8d\	.	8g/L	.	8b\L	.	.	.	.	.	.	.	.	.	8dd\L	8dd\L	.	.	.	.
8D\J	.	8f#X/J	.	8a\J	.	.	.	.	.	.	.	.	.	8dd\J	8dd\J	.	.	.	.
=18	=18	=18	=18	=18	=18	=18	=18	=18	=18	=18	=18	=18	=18	=18	=18	=18	=18	=18	=18
!	!	!	!	!	!	!	!	!	!	!	!	!LO:TX:a:t=Solo:	!	!	!	!LO:TX:a:Bi:t=Solo&colon;	!	!LO:TX:a:Bi:t=Solo	!
8G\L	.	4g/	.	4b\	.	2r	.	2r	.	8.b\	(et)	8.dd\	(et)	4g/	4dd\	4b/	.	4dd\	.
8G\	.	.	.	.	.	.	.	.	.	.	.	.	.	.	.	.	.	.	.
.	.	.	.	.	.	.	.	.	.	16b\	ex	16dd\	ex	.	.	.	.	.	.
8G\	.	4r	.	4r	.	.	.	.	.	16b\LL	pa-	16dd\LL	pa-	4r	4r	(16b/LL	.	(16dd\LL	.
.	.	.	.	.	.	.	.	.	.	16g\JJ	.	16b\JJ	.	.	.	16a/)	.	16cc\)	.
8G\J	.	.	.	.	.	.	.	.	.	16cc\LL	-tre	16ee\LL	-tre	.	.	(16cc/	.	(16ee\	.
.	.	.	.	.	.	.	.	.	.	16b\JJ	.	16dd\JJ	.	.	.	16b/JJ)	.	16dd\JJ)	.
=19	=19	=19	=19	=19	=19	=19	=19	=19	=19	=19	=19	=19	=19	=19	=19	=19	=19	=19	=19
!LO:TX:a:t=P:problem:mixed beam	!	!	!	!	!	!	!	!	!	!	!	!	!	!	!	!	!	!	!
.	.	.	.	.	.	.	.	.	.	.	.	8qqdd/	.	.	.	.	.	8qqdd/	.
8A\L	.	2r	.	2r	.	2r	.	2r	.	8g\L	na-	4cc\	na-	2r	2r	(8g/L	.	4cc\	.
8D\	.	.	.	.	.	.	.	.	.	8f#X\J	.	.	.	.	.	8f#X/)	.	.	.
8G\	.	.	.	.	.	.	.	.	.	8g\	-tum	8b\	-tum	.	.	8g`/	.	8b\L	.
8GG\J	.	.	.	.	.	.	.	.	.	16b\	an-	16dd\	an-	.	.	8b`/J	.	8dd\J	.
.	.	.	.	.	.	.	.	.	.	16b\	-te	16dd\	-te	.	.	.	.	.	.
=20	=20	=20	=20	=20	=20	=20	=20	=20	=20	=20	=20	=20	=20	=20	=20	=20	=20	=20	=20
8G\L	.	2r	.	2r	.	2r	.	2r	.	4b\	om-	4dd\	om-	2r	2r	4b/	.	4dd\	.
8G\	.	.	.	.	.	.	.	.	.	.	.	.	.	.	.	.	.	.	.
8G\	.	.	.	.	.	.	.	.	.	16cc\LL	-ni-	16ee\LL	-ni-	.	.	(16cc/LL	.	(16ee\LL	.
.	.	.	.	.	.	.	.	.	.	16b\JJ	.	16dd\JJ	.	.	.	16b/)	.	16dd\)	.
8G\J	.	.	.	.	.	.	.	.	.	16a\LL	-a	16cc\LL	-a	.	.	(16a/	.	(16cc\	.
.	.	.	.	.	.	.	.	.	.	16g\JJ	.	16b\JJ	.	.	.	16g/JJ)	.	16b\JJ)	.
=21	=21	=21	=21	=21	=21	=21	=21	=21	=21	=21	=21	=21	=21	=21	=21	=21	=21	=21	=21
!	!	!	!LO:DY:a	!	!LO:DY:a	!	!	!	!	!	!	!	!	!	!	!	!	!	!
8d\L	.	4r	p	4r	p	2r	.	2r	.	16g\	ſae-	16b\	ſae-	2r	2r	8g`/L	.	8b/L	.
.	.	.	.	.	.	.	.	.	.	16g\	-cu-	16b\	-cu-	.	.	.	.	.	.
8D\J	.	.	.	.	.	.	.	.	.	8f#X\	-la	8a\	-la	.	.	8f#X`/J	.	8a/J	.
4c\	.	4a/	.	4dd\	.	.	.	.	.	4r	.	8ff#X\	De-	.	.	4r	.	4r	.
.	.	.	.	.	.	.	.	.	.	.	.	16ee\	-um	.	.	.	.	.	.
.	.	.	.	.	.	.	.	.	.	.	.	16ff#\	de	.	.	.	.	.	.
=22	=22	=22	=22	=22	=22	=22	=22	=22	=22	=22	=22	=22	=22	=22	=22	=22	=22	=22	=22
*	*	*	*	*2\right	*	*	*	*	*	*	*	*	*	*	*	*	*	*	*
4B\	.	4g/	.	2dd\	.	2r	.	2r	.	2r	.	16gg\LL	De-	2r	2r	2r	.	2r	.
.	.	.	.	.	.	.	.	.	.	.	.	16dd\JJ	.	.	.	.	.	.	.
.	.	.	.	.	.	.	.	.	.	.	.	8dd\	-o	.	.	.	.	.	.
4c\	.	4a/	.	.	.	.	.	.	.	.	.	8ff#X\	lu-	.	.	.	.	.	.
.	.	.	.	.	.	.	.	.	.	.	.	16ee\	-men	.	.	.	.	.	.
.	.	.	.	.	.	.	.	.	.	.	.	16ff#\	de	.	.	.	.	.	.
=23	=23	=23	=23	=23	=23	=23	=23	=23	=23	=23	=23	=23	=23	=23	=23	=23	=23	=23	=23
4B\	.	4g/	.	2dd\	.	2r	.	2r	.	2r	.	16gg\	lu-	2r	2r	2r	.	2r	.
.	.	.	.	.	.	.	.	.	.	.	.	16dd\	-mi-	.	.	.	.	.	.
.	.	.	.	.	.	.	.	.	.	.	.	8dd\	-ne	.	.	.	.	.	.
4c\	.	4a/	.	.	.	.	.	.	.	.	.	8ff#X\	De-	.	.	.	.	.	.
.	.	.	.	.	.	.	.	.	.	.	.	16ee\LL	-um	.	.	.	.	.	.
.	.	.	.	.	.	.	.	.	.	.	.	16ff#\JJ	.	.	.	.	.	.	.
=24	=24	=24	=24	=24	=24	=24	=24	=24	=24	=24	=24	=24	=24	=24	=24	=24	=24	=24	=24
8B\L	.	8g/L	.	8dd\L	.	2r	.	2r	.	2r	.	16gg\LL	Ve-	2r	2r	2r	.	2r	.
.	.	.	.	.	.	.	.	.	.	.	.	16dd\	.	.	.	.	.	.	.
8B\	.	8g/	.	8dd\	.	.	.	.	.	.	.	16bb\	.	.	.	.	.	.	.
.	.	.	.	.	.	.	.	.	.	.	.	16aa\JJ	.	.	.	.	.	.	.
8B\	.	8g/	.	8dd\	.	.	.	.	.	.	.	16gg\LL	-rum	.	.	.	.	.	.
.	.	.	.	.	.	.	.	.	.	.	.	16ff#X\JJ	.	.	.	.	.	.	.
8B\J	.	8g/J	.	8dd\J	.	.	.	.	.	.	.	16ee\LL	de	.	.	.	.	.	.
.	.	.	.	.	.	.	.	.	.	.	.	16dd\JJ	.	.	.	.	.	.	.
=25	=25	=25	=25	=25	=25	=25	=25	=25	=25	=25	=25	=25	=25	=25	=25	=25	=25	=25	=25
!LO:TX:a:t=P:problem:mixed beam	!	!	!	!	!	!	!	!	!	!	!	!	!	!	!	!	!	!	!
8c\L	.	8a/L	.	8cc\L	.	2r	.	2r	.	2r	.	8ee\	De-	2r	2r	2r	.	2r	.
8c\	.	8a/J	.	24ee\L	.	.	.	.	.	.	.	16ee\LL	-o	.	.	.	.	.	.
.	.	.	.	24dd\	.	.	.	.	.	.	.	.	.	.	.	.	.	.	.
.	.	.	.	.	.	.	.	.	.	.	.	16cc\JJ	.	.	.	.	.	.	.
.	.	.	.	24cc\JJ	.	.	.	.	.	.	.	.	.	.	.	.	.	.	.
8d\	.	8g/L	.	8b/L	.	.	.	.	.	.	.	8b\L	ve-	.	.	.	.	.	.
8D\J	.	8f#X/J	.	8a/J	.	.	.	.	.	.	.	8a\J	.	.	.	.	.	.	.
=26	=26	=26	=26	=26	=26	=26	=26	=26	=26	=26	=26	=26	=26	=26	=26	=26	=26	=26	=26
!	!	!	!	!	!LO:DY:a	!	!	!	!	!	!	!	!	!	!	!	!	!	!
4G\	.	4g/	.	8b\L	f	2r	.	2r	.	2r	.	4b\	-ro	4g/	4dd\	2r	.	2r	.
.	.	.	.	(32gg\LL	.	.	.	.	.	.	.	.	.	.	.	.	.	.	.
.	.	.	.	32ff#X\	.	.	.	.	.	.	.	.	.	.	.	.	.	.	.
.	.	.	.	32gg\	.	.	.	.	.	.	.	.	.	.	.	.	.	.	.
.	.	.	.	32aa\JJJ)	.	.	.	.	.	.	.	.	.	.	.	.	.	.	.
8r	.	8r	.	16bb\LL	.	.	.	.	.	.	.	4r	.	8r	8r	.	.	.	.
.	.	.	.	16gg\	.	.	.	.	.	.	.	.	.	.	.	.	.	.	.
8G\	.	8g/	.	16dd\	.	.	.	.	.	.	.	.	.	8g/	8dd\	.	.	.	.
.	.	.	.	16b\JJ	.	.	.	.	.	.	.	.	.	.	.	.	.	.	.
=27	=27	=27	=27	=27	=27	=27	=27	=27	=27	=27	=27	=27	=27	=27	=27	=27	=27	=27	=27
4D\	.	4f#X/	.	8a\L	.	2r	.	2r	.	2r	.	2r	.	4dd\	4dd\	2r	.	2r	.
.	.	.	.	(32ff#X\LL	.	.	.	.	.	.	.	.	.	.	.	.	.	.	.
.	.	.	.	32ee\	.	.	.	.	.	.	.	.	.	.	.	.	.	.	.
.	.	.	.	32ff#\	.	.	.	.	.	.	.	.	.	.	.	.	.	.	.
.	.	.	.	32gg\JJJ)	.	.	.	.	.	.	.	.	.	.	.	.	.	.	.
8r	.	8r	.	16aa\LL	.	.	.	.	.	.	.	.	.	8r	8r	.	.	.	.
.	.	.	.	16ff#\	.	.	.	.	.	.	.	.	.	.	.	.	.	.	.
8F#X\	.	8d/	.	16dd\	.	.	.	.	.	.	.	.	.	8dd\	8dd\	.	.	.	.
.	.	.	.	16cc\JJ	.	.	.	.	.	.	.	.	.	.	.	.	.	.	.
=28	=28	=28	=28	=28	=28	=28	=28	=28	=28	=28	=28	=28	=28	=28	=28	=28	=28	=28	=28
4G\	.	4d/	.	8b\L	.	2r	.	2r	.	2r	.	2r	.	4g/	4dd\	4r	.	4r	.
.	.	.	.	(32gg\LL	.	.	.	.	.	.	.	.	.	.	.	.	.	.	.
.	.	.	.	32ff#X\	.	.	.	.	.	.	.	.	.	.	.	.	.	.	.
.	.	.	.	32gg\	.	.	.	.	.	.	.	.	.	.	.	.	.	.	.
.	.	.	.	32aa\JJJ)	.	.	.	.	.	.	.	.	.	.	.	.	.	.	.
!	!	!	!	!	!	!	!	!	!	!	!	!	!	!	!	!	!LO:DY:a	!	!LO:DY:a
8r	.	8r	.	16gg\LL	.	.	.	.	.	.	.	.	.	8r	8r	8r	f	8r	f
.	.	.	.	16ff#\	.	.	.	.	.	.	.	.	.	.	.	.	.	.	.
8B\	.	8g/	.	16ee\	.	.	.	.	.	.	.	.	.	8g/	8dd\	8b\	.	8gg\	.
.	.	.	.	16dd\JJ	.	.	.	.	.	.	.	.	.	.	.	.	.	.	.
=29	=29	=29	=29	=29	=29	=29	=29	=29	=29	=29	=29	=29	=29	=29	=29	=29	=29	=29	=29
!LO:TX:a:t=P:problem:mixed beam	!	!	!	!	!	!	!	!	!	!	!	!	!	!	!	!	!	!	!
8c\L	.	8a/L	.	8ee\L	.	2r	.	2r	.	2r	.	2r	.	4cc\	4ee\	4cc\	.	4aa\	.
8c\	.	8a/	.	24ee\L	.	.	.	.	.	.	.	.	.	.	.	.	.	.	.
.	.	.	.	24dd\	.	.	.	.	.	.	.	.	.	.	.	.	.	.	.
.	.	.	.	24cc\JJ	.	.	.	.	.	.	.	.	.	.	.	.	.	.	.
8d\	.	8g/	.	8b\L	.	.	.	.	.	.	.	.	.	8dd\L	8dd\L	8b/L	.	8gg\L	.
8D\J	.	8f#X/J	.	8a\J	.	.	.	.	.	.	.	.	.	8dd\J	8dd\J	8a/J	.	8ff#X\J	.
=30	=30	=30	=30	=30	=30	=30	=30	=30	=30	=30	=30	=30	=30	=30	=30	=30	=30	=30	=30
!LO:TX:a:t=tutti	!	!	!	!	!LO:DY:a	!	!	!	!	!	!	!	!	!	!	!	!	!	!
8G\L	.	8g/L	.	8.b\L	f	8.G\	ge-	8.d\	ge-	8.b\	ge-	8.dd\	ge-	4g/	4dd\	2b\	.	4gg\	.
8G\	.	8b/	.	.	.	.	.	.	.	.	.	.	.	.	.	.	.	.	.
.	.	.	.	16dd\Jk	.	16G\	-ni-	16d\	-ni-	16b\	-ni-	16dd\	-ni-	.	.	.	.	.	.
8G\	.	8b/	.	16gg\LL	.	8G\	-tum	8d\	-tum	8b\	-tum	8dd\	-tum	4r	4r	.	.	4dd\	.
.	.	.	.	16ff#X\	.	.	.	.	.	.	.	.	.	.	.	.	.	.	.
8G\J	.	8b/J	.	16ee\	.	8G\	non	8d\	non	8b\	non	8dd\	non	.	.	.	.	.	.
.	.	.	.	16dd\JJ	.	.	.	.	.	.	.	.	.	.	.	.	.	.	.
=31	=31	=31	=31	=31	=31	=31	=31	=31	=31	=31	=31	=31	=31	=31	=31	=31	=31	=31	=31
8G#X\L	.	8b/L	.	(8.dd\L	.	8G#X\	fac-	8d\	fac-	8b\	fac-	8ee\	fac-	2r	2r	2b\	.	2ee\	.
8G#X\	.	8b/	.	.	.	8G#\	-tum	8d\	-tum	8b\	-tum	8ee\	-tum	.	.	.	.	.	.
.	.	.	.	32b\LL	.	.	.	.	.	.	.	.	.	.	.	.	.	.	.
.	.	.	.	32cc\JJJ)	.	.	.	.	.	.	.	.	.	.	.	.	.	.	.
8G#X\	.	8b/	.	16dd\LL	.	8G#\	Con-	8d\	Con-	8b\	Con-	8ee\	Con-	.	.	.	.	.	.
.	.	.	.	16b\	.	.	.	.	.	.	.	.	.	.	.	.	.	.	.
8G#X\J	.	8b/J	.	16ee\	.	8G#\	-ſub-	8d\	-ſub-	8b\	-ſub-	8ee\	-ſub-	.	.	.	.	.	.
.	.	.	.	16dd\JJ	.	.	.	.	.	.	.	.	.	.	.	.	.	.	.
=32	=32	=32	=32	=32	=32	=32	=32	=32	=32	=32	=32	=32	=32	=32	=32	=32	=32	=32	=32
8A\L	.	16b\LL	.	16dd\LL	.	8A\	-ſtan-	8c\	-ſtan-	8cc\	-ſtan-	8ee\	-ſtan-	2r	2r	4cc\	.	4ee\	.
.	.	16a\	.	16cc\	.	.	.	.	.	.	.	.	.	.	.	.	.	.	.
8A\	.	16a\	.	16cc\	.	8A\	-ti-	8e\	-ti-	8cc\	-ti-	8ee\	-ti-	.	.	.	.	.	.
.	.	16cc\JJ	.	16ee\JJ	.	.	.	.	.	.	.	.	.	.	.	.	.	.	.
8D\	.	16cc\LL	.	16ee\LL	.	8D\	-a-	8f\	-a-	8b\	-a-	8dd\	-a-	.	.	8b/L	.	8dd\L	.
.	.	16b\	.	16dd\	.	.	.	.	.	.	.	.	.	.	.	.	.	.	.
8D#X\J	.	16b\	.	16dd\	.	8D#X\	-lem	8f\	-lem	8a\	-lem	8cc\	-lem	.	.	8a/J	.	8cc\J	.
.	.	16a\JJ	.	16cc\JJ	.	.	.	.	.	.	.	.	.	.	.	.	.	.	.
=33	=33	=33	=33	=33	=33	=33	=33	=33	=33	=33	=33	=33	=33	=33	=33	=33	=33	=33	=33
!LO:TX:a:t=P:problem:mixed beam	!	!	!	!	!	!	!	!	!	!	!	!	!	!	!	!	!	!	!
8E\L	.	24a/LL	.	24cc\LL	.	8E\	pa-	8e\	pa-	8a\	pa-	8cc\L	pa-	4e/	4ee\	8a/L	.	8cc\L	.
.	.	24g#X/	.	24b\	.	.	.	.	.	.	.	.	.	.	.	.	.	.	.
.	.	24a/J	.	24cc\J	.	.	.	.	.	.	.	.	.	.	.	.	.	.	.
8EE\J	.	8g#/J	.	8b\J	.	8E\	-tri	8e\	-tri	8g#X\	-tri	8b\J	.	.	.	8g#X/J	.	8b\J	.
8G#X\L	.	8b/L	.	16ee\LL	.	8G#X\	per	8e\	per	8b\	per	8ee\L	-tri	4r	4r	4b'/	.	4ee\	.
.	.	.	.	16ff\	.	.	.	.	.	.	.	.	.	.	.	.	.	.	.
8G#\J	.	8b/J	.	16ee\	.	8G#\	quem	8e\	quem	8b\	quem	8dd\J	.	.	.	.	.	.	.
.	.	.	.	16dd\JJ	.	.	.	.	.	.	.	.	.	.	.	.	.	.	.
=34	=34	=34	=34	=34	=34	=34	=34	=34	=34	=34	=34	=34	=34	=34	=34	=34	=34	=34	=34
*	*	*	*	*	*	*	*	*	*	*2\right	*	*	*	*	*	*	*	*	*
8A\L	.	8e/L	.	(8.cc#X\L	.	8A\L	om-	4e\	om-	2a\	om-	8.cc#X\L	per	2r	2r	2a/	.	4cc#X\	.
8Gn\	.	8e/	.	.	.	8Gn\	.	.	.	.	.	.	.	.	.	.	.	.	.
.	.	.	.	32b\LL	.	.	.	.	.	.	.	32b\LL	.	.	.	.	.	.	.
.	.	.	.	32cc#\JJJ)	.	.	.	.	.	.	.	32cc#\JJJ	.	.	.	.	.	.	.
8F\	.	8a/	.	16dd\LL	.	8F\	.	4d\	.	.	.	8dd\L	quem	.	.	.	.	4dd\	.
.	.	.	.	16ee\	.	.	.	.	.	.	.	.	.	.	.	.	.	.	.
8F#X\J	.	8a/J	.	16dd\	.	8F#X\J	.	.	.	.	.	8ccn\J	.	.	.	.	.	.	.
.	.	.	.	16ccn\JJ	.	.	.	.	.	.	.	.	.	.	.	.	.	.	.
=35	=35	=35	=35	=35	=35	=35	=35	=35	=35	=35	=35	=35	=35	=35	=35	=35	=35	=35	=35
8G\L	.	8d/L	.	(8.b\L	.	8G\L	.	4d\	.	2gn\	.	8.b\L	om-	4r	4r	2gn/	.	4b\	.
8Fn\	.	8d/	.	.	.	8Fn\J	.	.	.	.	.	.	.	.	.	.	.	.	.
.	.	.	.	32a\LL	.	.	.	.	.	.	.	32a\LL	.	.	.	.	.	.	.
.	.	.	.	32b\JJJ)	.	.	.	.	.	.	.	32b\JJJ	.	.	.	.	.	.	.
8E\	.	8g/	.	16cc\LL	.	4E\	.	4c\	.	.	.	8cc\L	.	8r	8r	.	.	8ccn\L	.
.	.	.	.	16dd\	.	.	.	.	.	.	.	.	.	.	.	.	.	.	.
8E\J	.	8g/J	.	16cc\	.	.	.	.	.	.	.	8b-X\J	.	8cc\	8ee\	.	.	8ee\J	.
.	.	.	.	16b-X\JJ	.	.	.	.	.	.	.	.	.	.	.	.	.	.	.
=36	=36	=36	=36	=36	=36	=36	=36	=36	=36	=36	=36	=36	=36	=36	=36	=36	=36	=36	=36
8F\L	.	8a/L	.	16a\LL	.	8F\	-ni-	8A\	-ni-	8f\	-ni-	8a\	ni-	4dd\	4ff\	4cc\	.	4ff\	.
.	.	.	.	16dd\	.	.	.	.	.	.	.	.	.	.	.	.	.	.	.
8F\	.	8a/	.	16ff\	.	8F\	-a	8A\	-a	8f\	-a	8dd\	-a	.	.	.	.	.	.
.	.	.	.	16ee\JJ	.	.	.	.	.	.	.	.	.	.	.	.	.	.	.
8F\	.	8a/	.	16ee\LL	.	8F\	fac-	8A\	fac-	8f\	fac-	8dd\	fac-	8dd\L	8ff\L	8dd\L	.	8ff\L	.
.	.	.	.	16dd\	.	.	.	.	.	.	.	.	.	.	.	.	.	.	.
8F#X\J	.	8a/J	.	16dd\	.	8F#X\	-ta	8A\	-ta	8e\	-ta	8cc\	-ta	8cc\J	8ee\J	8cc\J	.	8ee\J	.
.	.	.	.	16cc\JJ	.	.	.	.	.	.	.	.	.	.	.	.	.	.	.
=37	=37	=37	=37	=37	=37	=37	=37	=37	=37	=37	=37	=37	=37	=37	=37	=37	=37	=37	=37
!LO:TX:a:t=P:problem:mixed beam	!	!	!	!	!	!	!	!	!	!	!	!	!	!	!	!	!	!	!
8G\L	.	8e/L	.	24cc\LL	.	4G\	ſunt	4G/	ſunt	8e\L	ſunt	8cc\L	ſunt	8cc\L	8ee\L	8cc\L	.	8ee\L	.
.	.	.	.	24b\	.	.	.	.	.	.	.	.	.	.	.	.	.	.	.
.	.	.	.	24cc\J	.	.	.	.	.	.	.	.	.	.	.	.	.	.	.
8GG\J	.	8d/J	.	8b\J	.	.	.	.	.	8d\J	.	8bn\J	.	8g\J	8dd\J	8b\J	.	8dd\J	.
!LO:TX:a:t=P:problem:niejednoznaczny zapis artykulacji [przyjęto staccatissimo]:global	!	!	!	!	!	!	!	!	!	!	!	!	!	!	!	!	!	!	!
16G`\LL	.	4r	.	4r	.	4r	.	4r	.	4r	.	4r	.	4r	4r	4r	.	4r	.
16Fn`\	.	.	.	.	.	.	.	.	.	.	.	.	.	.	.	.	.	.	.
16E`\	.	.	.	.	.	.	.	.	.	.	.	.	.	.	.	.	.	.	.
16D`\JJ	.	.	.	.	.	.	.	.	.	.	.	.	.	.	.	.	.	.	.
=38	=38	=38	=38	=38	=38	=38	=38	=38	=38	=38	=38	=38	=38	=38	=38	=38	=38	=38	=38
8C/L	.	(8.cc\L	.	(8.ee\L	.	4c\	qui	4G/	qui	4e\	Qui	4cc\	Qui	4cc\	4ee\	(8.cc\L	.	8.ee\L	.
8C/	.	.	.	.	.	.	.	.	.	.	.	.	.	.	.	.	.	.	.
.	.	16dd\Jk)	.	16ff\Jk)	.	.	.	.	.	.	.	.	.	.	.	16dd\Jk)	.	16ff\Jk	.
8C/	.	(16ff\LL	.	16aa\LL	.	4c\	pro-	4G/	pro-	4e\	pro-	4cc\	pro-	4cc\	4ee\	8ee`\L	.	8gg\L	.
.	.	16ee\)	.	16gg\	.	.	.	.	.	.	.	.	.	.	.	.	.	.	.
8C/J	.	(16dd\	.	16ff\	.	.	.	.	.	.	.	.	.	.	.	8ee`\J	.	8gg\J	.
.	.	16cc\JJ)	.	16ee\JJ	.	.	.	.	.	.	.	.	.	.	.	.	.	.	.
=39	=39	=39	=39	=39	=39	=39	=39	=39	=39	=39	=39	=39	=39	=39	=39	=39	=39	=39	=39
!LO:TX:a:t=P:problem:mixed beam	!	!	!	!	!	!	!	!	!	!	!	!	!	!	!	!	!	!	!
8F\L	.	8dd\L	.	16ff\LL	.	8F\	-pter	8A/	-pter	8f\	-pter	8dd\	-pter	4cc\	4ff\	4dd\	.	4ff\	.
.	.	.	.	16aa\	.	.	.	.	.	.	.	.	.	.	.	.	.	.	.
8F\	.	16ff\L	.	16dd\	.	8F\	nos	8A/	nos	8f\	nos	8dd\	nos	.	.	.	.	.	.
.	.	16dd\JJ	.	16ff\JJ	.	.	.	.	.	.	.	.	.	.	.	.	.	.	.
8G\	.	8cc\L	.	8ee\L	.	8G\	ho-	8G/	ho-	8e\	ho-	8cc\	ho-	8cc\L	8ee\L	8cc\L	.	8ee\L	.
8GG\J	.	8b\J	.	8dd\J	.	8GG/	-mi-	8F/	-mi-	8d\	-mi-	8b\	-mi-	8g\J	8dd\J	8b\J	.	8dd\J	.
=40	=40	=40	=40	=40	=40	=40	=40	=40	=40	=40	=40	=40	=40	=40	=40	=40	=40	=40	=40
8C/L	.	(8.cc\L	.	(8.ee\L	.	8C/	-nes	8G/	-nes	8e\	-nes	8cc\	-nes	4e/	4cc\	(8.cc\L	.	8.ee\L	.
8C/	.	.	.	.	.	8c\	(et)	8G/	(et)	8e\	(et)	8cc\	(et)	.	.	.	.	.	.
.	.	16dd\Jk)	.	16ff\Jk)	.	.	.	.	.	.	.	.	.	.	.	16dd\Jk)	.	16ff\Jk	.
8C/	.	(16ff\LL	.	(16aa\LL	.	8c\	pro-	8G/	pro-	8e\	pro-	8cc\	pro-	4cc\	4ee\	8ee`\L	.	8gg\L	.
.	.	16ee\)	.	16gg\)	.	.	.	.	.	.	.	.	.	.	.	.	.	.	.
8C/J	.	(16dd\	.	(16ff\	.	8c\	-pter	8G/	-pter	8e\	-pter	8cc\	-pter	.	.	8ee`\J	.	8gg\J	.
.	.	16cc\JJ)	.	16ee\JJ)	.	.	.	.	.	.	.	.	.	.	.	.	.	.	.
=41	=41	=41	=41	=41	=41	=41	=41	=41	=41	=41	=41	=41	=41	=41	=41	=41	=41	=41	=41
!LO:TX:a:t=P:problem:mixed beam	!	!	!	!	!	!	!	!	!	!	!	!	!	!	!	!	!	!	!
.	.	8qcc/	.	.	.	.	.	.	.	.	.	.	.	.	.	.	.	.	.
8F\L	.	8dd\L	.	16ff\LL	.	8F\	noſ-	8A/	noſ-	8f\	noſ-	8dd\	noſ-	4dd\	4ff\	4dd\	.	4ff\	.
.	.	.	.	16aa\	.	.	.	.	.	.	.	.	.	.	.	.	.	.	.
8F\	.	16ff\L	.	16dd\	.	16F\	-tram	16A/	-tram	16f\	-tram	16dd\	-tram	.	.	.	.	.	.
.	.	16dd\JJ	.	16ff\JJ	.	16F\	ſa-	16A/	ſa-	16f\	ſa-	16dd\	ſa-	.	.	.	.	.	.
8G\	.	8cc\L	.	8ee\L	.	8G/L	-lu-	4G/	-lu-	8e\L	-lu-	8cc\L	-lu-	8cc\L	8ee\L	8cc\L	.	8ee\L	.
8GG\J	.	8b\J	.	8dd\J	.	8GG/J	.	.	.	8d\J	.	8b\J	.	8g\J	8dd\J	8b\J	.	8dd\J	.
=42	=42	=42	=42	=42	=42	=42	=42	=42	=42	=42	=42	=42	=42	=42	=42	=42	=42	=42	=42
*tremolo	*	*	*	*	*	*	*	*	*	*	*	*	*	*	*	*	*	*	*
8C/L	.	(8.cc\L	.	(8.ee\L	.	4C/	-tem	4G/	-tem	4e\	-tem	4cc\	-tem	4e/	2cc\	4cc\	.	4ee\	.
8C/	.	.	.	.	.	.	.	.	.	.	.	.	.	.	.	.	.	.	.
.	.	16dd\Jk)	.	16ff\Jk)	.	.	.	.	.	.	.	.	.	.	.	.	.	.	.
8C/	.	(16ee\LL	.	(16gg\LL	.	4c\	deſ-	4c\	deſ-	4g\	Deſ-	4ee\	deſ-	4c/	.	4ee\	.	4gg\	.
.	.	16cc\)	.	16ee\)	.	.	.	.	.	.	.	.	.	.	.	.	.	.	.
8C/J	.	(16dd\	.	(16ff\	.	.	.	.	.	.	.	.	.	.	.	.	.	.	.
.	.	16ee\JJ)	.	16gg\JJ)	.	.	.	.	.	.	.	.	.	.	.	.	.	.	.
*Xtremolo	*	*	*	*	*	*	*	*	*	*	*	*	*	*	*	*	*	*	*
=43	=43	=43	=43	=43	=43	=43	=43	=43	=43	=43	=43	=43	=43	=43	=43	=43	=43	=43	=43
!LO:TX:a:t=P:problem:mixed beam	!	!	!	!	!	!	!	!	!	!	!	!	!	!	!	!	!	!	!
8c\L	.	(16ee\LL	.	(16gg#X\LL	.	4c\	-cen-	4c\	-cen-	4a\	-cen-	4ff\	-cen-	2c/	2cc\	4ff\	.	4aa\	.
.	.	16ff\J)	.	16aa\J)	.	.	.	.	.	.	.	.	.	.	.	.	.	.	.
8c\	.	8ff\J	.	(8.aa\J	.	.	.	.	.	.	.	.	.	.	.	.	.	.	.
8C\	.	16ff\LL	.	.	.	8c\	-dit	8c\	-dit	8g\	-dit	8ee\	-dit	.	.	4ee\	.	4gg\	.
.	.	16ee\	.	16ggn\LL)	.	.	.	.	.	.	.	.	.	.	.	.	.	.	.
8C\J	.	16dd\	.	(16ff\	.	8c\	{deſ-	8c\	deſ-	8g\	{Deſ-	8ee\	{deſ-	.	.	.	.	.	.
.	.	16cc\JJ	.	16ee\JJ)	.	.	.	.	.	.	.	.	.	.	.	.	.	.	.
=44	=44	=44	=44	=44	=44	=44	=44	=44	=44	=44	=44	=44	=44	=44	=44	=44	=44	=44	=44
!LO:TX:a:t=P:problem:mixed beam	!	!	!	!	!	!	!	!	!	!	!	!	!	!	!	!	!	!	!
8G\L	.	16cc\LL	.	16ee\LL	.	4G\	-cen-	4B\	-cen-	4f\	-cen-	4dd\	-cen-	4g/	4dd\	4dd\	.	4ff\	.
.	.	16b\	.	16dd\	.	.	.	.	.	.	.	.	.	.	.	.	.	.	.
8GG\	.	16b\	.	16gg\	.	.	.	.	.	.	.	.	.	.	.	.	.	.	.
.	.	16dd\JJ	.	16ff\JJ	.	.	.	.	.	.	.	.	.	.	.	.	.	.	.
8C\	.	16dd\LL	.	16ff\LL	.	8C/	-dit}	8c\	-dit	8e\	-dit}	8cc\	-dit}	4cc\	4ee\	4cc\	.	4ee\	.
.	.	16cc\	.	16ee\	.	.	.	.	.	.	.	.	.	.	.	.	.	.	.
8C\J	.	16b\	.	16dd\	.	8C/	de	8c\	de	8g\	de	8ee\	de	.	.	.	.	.	.
.	.	16cc\JJ	.	16ee\JJ	.	.	.	.	.	.	.	.	.	.	.	.	.	.	.
=45	=45	=45	=45	=45	=45	=45	=45	=45	=45	=45	=45	=45	=45	=45	=45	=45	=45	=45	=45
!LO:TX:a:t=P:problem:mixed beam	!	!	!	!	!	!	!	!	!	!	!	!	!	!	!	!	!	!	!
8F\L	.	8dd\L	.	16ff\LL	.	4F\	Cae-	4A/	Cae-	4f\	Cae-	4dd\	Cae-	4dd\	4ff\	4dd\	.	4ff\	.
.	.	.	.	16dd\	.	.	.	.	.	.	.	.	.	.	.	.	.	.	.
8F\	.	16ff\L	.	16aa\	.	.	.	.	.	.	.	.	.	.	.	.	.	.	.
.	.	16dd\JJ	.	16ff\JJ	.	.	.	.	.	.	.	.	.	.	.	.	.	.	.
!	!	!	!	!	!	!LO:TX:a:t=P:problem:mixed beam	!	!	!	!	!	!	!	!	!	!	!	!	!
8G\	.	16dd\LL	.	16ff\LL	.	8G\L	.	4G/	.	8e\L	.	8cc\L	.	8cc\L	8ee\L	8cc\L	.	8ee\L	.
.	.	16cc\	.	16ee\	.	.	.	.	.	.	.	.	.	.	.	.	.	.	.
8GG\J	.	16cc\	.	16ee\	.	8GG\J	.	.	.	8d\J	.	8b\J	.	8g\J	8dd\J	8b\J	.	8dd\J	.
.	.	16b\JJ	.	16dd\JJ	.	.	.	.	.	.	.	.	.	.	.	.	.	.	.
=46	=46	=46	=46	=46	=46	=46	=46	=46	=46	=46	=46	=46	=46	=46	=46	=46	=46	=46	=46
8C\L	.	16cc\LL	.	16ee\LL	.	8C/	-lis	8G/	-lis	8e\	-lis	8cc\	-lis	8e/	8cc\L	8cc\	.	4ee\	.
.	.	16cc\	.	16ee\	.	.	.	.	.	.	.	.	.	.	.	.	.	.	.
8A\	.	16cc\	.	16ee\	.	8A\	{de	8A/	{de	8e\	de	8cc\	de	4cc\	8ee\J	4cc\	.	.	.
.	.	16cc\JJ	.	16ee\JJ	.	.	.	.	.	.	.	.	.	.	.	.	.	.	.
*	*	*	*	*tremolo	*	*	*	*	*	*	*	*	*	*	*	*	*	*	*
8F\	.	16cc\LL	.	16dd\LL	.	8F\L	Cae-	8A/L	Cae-	4d\	Cae-	8cc\L	Cae-	.	4dd\	.	.	4dd\	.
.	.	16cc\	.	16dd\	.	.	.	.	.	.	.	.	.	.	.	.	.	.	.
8G\J	.	16b\	.	16dd\	.	8G\J	.	8G/J	.	.	.	8b\J	.	8g/	.	8b\	.	.	.
.	.	16b\JJ	.	16dd\JJ	.	.	.	.	.	.	.	.	.	.	.	.	.	.	.
*	*	*	*	*Xtremolo	*	*	*	*	*	*	*	*	*	*	*	*	*	*	*
=47	=47	=47	=47	=47	=47	=47	=47	=47	=47	=47	=47	=47	=47	=47	=47	=47	=47	=47	=47
4C/	.	4cc\	.	4ee\	.	4C/	-lis}	4G/	-lis}	4e\	-lis	4cc\	-lis	4e/	4cc\	4cc\	.	4ee\	.
!	!	!	!	!LO:TX:b:t=Verte	!	!LO:TX:b:t=Verte	!	!LO:TX:b:t=Verte	!	!	!	!	!	!	!	!	!	!	!
4r	.	4r	.	4r	.	4r	.	4r	.	4r	.	4r	.	4r	4r	4r	.	4r	.
=48||	=48||	=48||	=48||	=48||	=48||	=48||	=48||	=48||	=48||	=48||	=48||	=48||	=48||	=48||	=48||	=48||	=48||	=48||	=48||
*k[b-e-a-]	*	*k[b-e-a-]	*	*k[b-e-a-]	*	*k[b-e-a-]	*	*k[b-e-a-]	*	*k[b-e-a-]	*	*k[b-e-a-]	*	*k[b-e-a-]	*k[b-e-a-]	*k[b-e-a-]	*	*k[b-e-a-]	*
*M3/4	*	*M3/4	*	*M3/4	*	*M3/4	*	*M3/4	*	*M3/4	*	*M3/4	*	*M3/4	*M3/4	*M3/4	*	*M3/4	*
*	*	*	*	*	*	*	*	*	*	*	*	*2\right	*	*	*	*	*	*	*
!LO:TX:a:t=P:problem:dynamika "poco f:"	!	!	!	!	!	!	!	!LO:TX:a:t=P:problem:kolejność znaków B- E- A-	!	!	!	!	!	!	!	!	!	!	!
!	!	!LO:TX:a:t=P:problem:mixed beam	!	!LO:TX:a:t=P:problem:mixed beam	!	!	!	!	!	!	!	!	!	!	!	!	!	!	!
!LO:TX:a:B:t=adagio	!	!LO:TX:a:B:t=adagio	!	!LO:TX:a:B:t=Adagio	!	!LO:TX:a:B:t=adag:	!	!LO:TX:a:B:t=adagio	!	!LO:TX:a:B:t=adag:	!	!LO:TX:a:B:t=adagio:	!	!	!	!	!	!	!
!	!	!	!	!	!	!	!	!	!	!	!	!	!	!LO:TX:a:B:t=Et incarnatus Tacet	!LO:TX:a:B:t=Et incarnatus Tacet	!LO:TX:a:B:t=Et incarnatus Tacet	!	!LO:TX:a:B:t=Et incarnatus Tacet	!
!	!LO:DY:a	!	!	!	!	!	!	!	!	!	!	!	!	!	!	!	!	!	!
8C/L	f	8cc/L	.	8cc/L	.	2.C/	Et	2.G/	Et	2.e-\	Et	2.cc\	Et	2.ryy	2.ryy	2.ryy	.	2.ryy	.
!	!	!LO:TX:a:t=P:problem:niejednoznaczny zapis łuku	!	!	!	!	!	!	!	!	!	!	!	!	!	!	!	!	!
(32C/LL	.	(32c/LL	.	(32c/LL	.	.	.	.	.	.	.	.	.	.	.	.	.	.	.
32D/	.	32d/	.	32d/	.	.	.	.	.	.	.	.	.	.	.	.	.	.	.
32E-/	.	32e-/	.	32e-/	.	.	.	.	.	.	.	.	.	.	.	.	.	.	.
32D/JJJ)	.	32d/JJJ)	.	32d/JJJ)	.	.	.	.	.	.	.	.	.	.	.	.	.	.	.
!	!	!LO:TX:a:t=P:problem:niejednoznaczny zapis artykulacji [przyjęto staccatissimo]:global	!	!	!	!	!	!	!	!	!	!	!	!	!	!	!	!	!
8C\L	.	8c`/L	.	8c`/L	.	.	.	.	.	.	.	.	.	.	.	.	.	.	.
8E-\	.	8e-`/	.	8e-`/	.	.	.	.	.	.	.	.	.	.	.	.	.	.	.
8G\	.	8g`/	.	8g`/	.	.	.	.	.	.	.	.	.	.	.	.	.	.	.
8c\J	.	8cc`/J	.	8cc`/J	.	.	.	.	.	.	.	.	.	.	.	.	.	.	.
=49	=49	=49	=49	=49	=49	=49	=49	=49	=49	=49	=49	=49	=49	=49	=49	=49	=49	=49	=49
*	*	*	*	*	*	*2\right	*	*	*	*	*	*	*	*	*	*	*	*	*
!LO:TX:a:t=P:problem:mixed beam	!	!	!	!	!	!	!	!	!	!	!	!	!	!	!	!	!	!	!
8G/L	.	8g`/L	.	8g`/L	.	2G\	in-	2G/	in-	2d\	in-	2bn\	in-	2.ryy	2.ryy	2.ryy	.	2.ryy	.
(32GG/LL	.	(32G/LL	.	(32G/LL	.	.	.	.	.	.	.	.	.	.	.	.	.	.	.
32AA-/	.	32A-/	.	32A-/	.	.	.	.	.	.	.	.	.	.	.	.	.	.	.
32BBn/	.	32Bn/	.	32Bn/	.	.	.	.	.	.	.	.	.	.	.	.	.	.	.
32AA-/JJJ)	.	32A-/JJJ)	.	32A-/JJJ)	.	.	.	.	.	.	.	.	.	.	.	.	.	.	.
8GG/L	.	8G`/L	.	8G`/L	.	.	.	.	.	.	.	.	.	.	.	.	.	.	.
8BB/J	.	8B`/	.	8B`/	.	.	.	.	.	.	.	.	.	.	.	.	.	.	.
8D\L	.	8d`/	.	8d`/	.	4G\	-car-	4G/	-car-	4d\	-car-	4b\	-car-	.	.	.	.	.	.
8G\J	.	8g`/J	.	8g`/J	.	.	.	.	.	.	.	.	.	.	.	.	.	.	.
=50	=50	=50	=50	=50	=50	=50	=50	=50	=50	=50	=50	=50	=50	=50	=50	=50	=50	=50	=50
4C/	.	4c/	.	4c/	.	8C/	-na-	8G/	-na-	8.e-\	-na-	8.cc\	-na-	2.ryy	2.ryy	2.ryy	.	2.ryy	.
.	.	.	.	.	.	8C/	-tus	8G/	-tus	.	.	.	.	.	.	.	.	.	.
.	.	.	.	.	.	.	.	.	.	16f\	-tus	16dd\	-tus	.	.	.	.	.	.
8r	.	8r	.	8r	.	4C/	eſt	4G/	eſt	4g\	eſt	4ee-\	eſt	.	.	.	.	.	.
(32c\LLL	.	(32cc\LLL	.	(32cc\LLL	.	.	.	.	.	.	.	.	.	.	.	.	.	.	.
32Bn\	.	32bn\	.	32bn\	.	.	.	.	.	.	.	.	.	.	.	.	.	.	.
32c\	.	32cc\	.	32cc\	.	.	.	.	.	.	.	.	.	.	.	.	.	.	.
32d\JJJ)	.	32dd\JJJ)	.	32dd\JJJ)	.	.	.	.	.	.	.	.	.	.	.	.	.	.	.
!LO:TX:a:t=P:problem:mixed beam	!	!	!	!	!	!	!	!	!	!	!	!	!	!	!	!	!	!	!
8c\L	.	8cc`\L	.	8cc\L	.	8r	.	8r	.	8r	.	8r	.	.	.	.	.	.	.
8C\J	.	8g`\J	.	8ee-\J	.	8c\	de	8G/	de	8g\	de	8ee-\	de	.	.	.	.	.	.
=51	=51	=51	=51	=51	=51	=51	=51	=51	=51	=51	=51	=51	=51	=51	=51	=51	=51	=51	=51
4F\	.	4f/	.	4dd\	.	4F\	ſpi-	4A-/	ſpi-	4f\	ſpi-	4dd\	ſpi-	2.ryy	2.ryy	2.ryy	.	2.ryy	.
4G\	.	4e-/	.	4cc\	.	4G\	-ri-	4G/	-ri-	4e-\	-ri-	4cc\	-ri-	.	.	.	.	.	.
4GG/	.	4d/	.	4bn\	.	4GG/	-tu	4G/	-tu	4d\	-tu	4bn\	-tu	.	.	.	.	.	.
=52	=52	=52	=52	=52	=52	=52	=52	=52	=52	=52	=52	=52	=52	=52	=52	=52	=52	=52	=52
!LO:TX:a:t=P:problem:mixed beam	!	!LO:TX:a:t=P:problem:mixed beam	!	!	!	!	!	!	!	!	!	!	!	!	!	!	!	!	!
8C\L	.	8e-/L	.	8cc\L	.	4C/	ſan-	4G/	ſan-	4e-\	ſan-	4cc\	ſan-	2.ryy	2.ryy	2.ryy	.	2.ryy	.
(16c\L	.	(16cc/L	.	16cc\L	.	.	.	.	.	.	.	.	.	.	.	.	.	.	.
16Bn\JJ)	.	16bn/JJ)	.	16bn\JJ	.	.	.	.	.	.	.	.	.	.	.	.	.	.	.
8c`\L	.	8cc`/L	.	8cc/L	.	4C/	-cto	4G/	-cto	4e-\	-cto	4cc\	-cto	.	.	.	.	.	.
8G`\	.	8g`/	.	8g/J	.	.	.	.	.	.	.	.	.	.	.	.	.	.	.
8E-`\	.	8e-`/	.	8e-/L	.	4r	.	4r	.	4r	.	4r	.	.	.	.	.	.	.
8G`\J	.	8g`/J	.	8g/J	.	.	.	.	.	.	.	.	.	.	.	.	.	.	.
=53	=53	=53	=53	=53	=53	=53	=53	=53	=53	=53	=53	=53	=53	=53	=53	=53	=53	=53	=53
*	*	*	*	*	*	*	*	*2\right	*	*	*	*	*	*	*	*	*	*	*
!	!	!LO:TX:a:t=P:problem:mixed beam	!	!LO:TX:a:t=P:problem:mixed beam	!	!	!	!	!	!	!	!	!	!	!	!	!	!	!
8C\L	.	8c\L	.	8c`\L	.	2C/	Ex	2c\	Ex	2g\	ex	2ee-\	ex	2.ryy	2.ryy	2.ryy	.	2.ryy	.
(32c\LL	.	(32cc\LL	.	(32cc\LL	.	.	.	.	.	.	.	.	.	.	.	.	.	.	.
!LO:SIC:v:s=32Bn\	!	!	!	!LO:SIC:v:s=32bn\	!	!	!	!	!	!	!	!	!	!	!	!	!	!	!
32B-\	.	32bn\	.	32b-\	.	.	.	.	.	.	.	.	.	.	.	.	.	.	.
32c\	.	32cc\	.	32cc\	.	.	.	.	.	.	.	.	.	.	.	.	.	.	.
32d\JJJ)	.	32dd\JJJ)	.	32dd\JJJ)	.	.	.	.	.	.	.	.	.	.	.	.	.	.	.
8c\L	.	8cc`/L	.	8cc`/L	.	.	.	.	.	.	.	.	.	.	.	.	.	.	.
8G\	.	8g`/	.	8g`/	.	.	.	.	.	.	.	.	.	.	.	.	.	.	.
8En\	.	8en`/	.	8en`/	.	4C/	ma-	4c\	ma	4g\	ma	4een\	ma-	.	.	.	.	.	.
8C\J	.	8c`/J	.	8c`/J	.	.	.	.	.	.	.	.	.	.	.	.	.	.	.
=54	=54	=54	=54	=54	=54	=54	=54	=54	=54	=54	=54	=54	=54	=54	=54	=54	=54	=54	=54
8F\L	.	8f`/L	.	8f`/L	.	2F\	-ri-	2c\	-ri-	2a-\	-ri-	2ff\	-ri-	2.ryy	2.ryy	2.ryy	.	2.ryy	.
!	!	!LO:TX:a:t=P:problem:niejednoznaczny zapis łuku	!	!	!	!	!	!	!	!	!	!	!	!	!	!	!	!	!
(32F\LL	.	(32f/LL	.	(32f/LL	.	.	.	.	.	.	.	.	.	.	.	.	.	.	.
32En\	.	32e-/	.	32e-/	.	.	.	.	.	.	.	.	.	.	.	.	.	.	.
32F\	.	32f/	.	32f/	.	.	.	.	.	.	.	.	.	.	.	.	.	.	.
32G\JJJ)	.	32g/JJJ)	.	32g/JJJ)	.	.	.	.	.	.	.	.	.	.	.	.	.	.	.
8F/L	.	8f`/L	.	8f`/L	.	.	.	.	.	.	.	.	.	.	.	.	.	.	.
8C/	.	8cc`/	.	8cc`/	.	.	.	.	.	.	.	.	.	.	.	.	.	.	.
8AA-/	.	8a-`/	.	8a-`/	.	4F\	-a	4c\	-a	4a-\	-a	4ff\	-a	.	.	.	.	.	.
8FF/J	.	8f`/J	.	8f`/J	.	.	.	.	.	.	.	.	.	.	.	.	.	.	.
=55	=55	=55	=55	=55	=55	=55	=55	=55	=55	=55	=55	=55	=55	=55	=55	=55	=55	=55	=55
!LO:TX:a:t=P:problem:mixed beam	!	!	!	!	!	!	!	!	!	!	!	!	!	!	!	!	!	!	!
8BB-X\L	.	8b-X`/L	.	8b-`/L	.	8BB-X/	Vir-	8B-X\	Vir-	8f\	Vir-	8dd\	Vir-	2.ryy	2.ryy	2.ryy	.	2.ryy	.
!	!	!LO:TX:a:t=P:problem:niejednoznaczny zapis łuku	!	!	!	!	!	!	!	!	!	!	!	!	!	!	!	!	!
(32B-\LL	.	(32b-/LL	.	(32b-/LL	.	8BB-/	-gi-	8B-\	-gi-	8f\	-gi-	8dd\	-gi-	.	.	.	.	.	.
!LO:SIC:v:s=32An\	!	!LO:SIC:v:s=32an/	!	!	!	!	!	!	!	!	!	!	!	!	!	!	!	!	!
32A-\	.	32a-/	.	32an/	.	.	.	.	.	.	.	.	.	.	.	.	.	.	.
32B-\	.	32b-/	.	32b-/	.	.	.	.	.	.	.	.	.	.	.	.	.	.	.
32c\JJJ)	.	32cc/JJJ)	.	32cc/JJJ)	.	.	.	.	.	.	.	.	.	.	.	.	.	.	.
8B-\L	.	8b-`/L	.	8b-`/L	.	4BB-/	-ne	4B-\	-ne	4f\	-ne	4dd\	-ne	.	.	.	.	.	.
8F\J	.	8f`/	.	8f`/	.	.	.	.	.	.	.	.	.	.	.	.	.	.	.
8D/L	.	8d`/	.	8d`/	.	4BB-/	(et)	4B-\	(et)	4f\	(et)	4dd\	(et)	.	.	.	.	.	.
8BB-/J	.	8B-`/J	.	8B-`/J	.	.	.	.	.	.	.	.	.	.	.	.	.	.	.
=56	=56	=56	=56	=56	=56	=56	=56	=56	=56	=56	=56	=56	=56	=56	=56	=56	=56	=56	=56
8E-\L	.	8e-/L	.	8e-/L	.	4E-\	ho-	4B-\	ho-	4g\	ho-	4ee-X\	ho-	2.ryy	2.ryy	2.ryy	.	2.ryy	.
(32E-\LL	.	(32e-/LL	.	(32e-/LL	.	.	.	.	.	.	.	.	.	.	.	.	.	.	.
32D\	.	32d/	.	32d/	.	.	.	.	.	.	.	.	.	.	.	.	.	.	.
32E-\	.	32e-/	.	32e-/	.	.	.	.	.	.	.	.	.	.	.	.	.	.	.
32F\JJJ)	.	32f/JJJ)	.	32f/JJJ)	.	.	.	.	.	.	.	.	.	.	.	.	.	.	.
8E-/L	.	8e-/L	.	8e-`/L	.	4E-\	-mo	4B-\	-mo	4g\	-mo	4ee-\	-mo	.	.	.	.	.	.
8BB-/	.	8B-/	.	8B-`/	.	.	.	.	.	.	.	.	.	.	.	.	.	.	.
!	!	!	!	!	!	!	!	!	!	!LO:TX:a:t=Solo	!	!LO:TX:a:t=Solo	!	!	!	!	!	!	!
8GG/	.	8G/	.	8G`/	.	4r	.	4r	.	8r	.	8r	.	.	.	.	.	.	.
8BB-/J	.	8B-/J	.	8B-`/J	.	.	.	.	.	8g\	{et	8b-\	{et	.	.	.	.	.	.
=57	=57	=57	=57	=57	=57	=57	=57	=57	=57	=57	=57	=57	=57	=57	=57	=57	=57	=57	=57
!	!LO:DY:a	!	!	!	!	!	!	!	!	!	!	!	!	!	!	!	!	!	!
4EE-/	p	4e-/	.	4e-`/	.	2.r	.	2.r	.	4a-\	ho-	4cc\	ho-	2.ryy	2.ryy	2.ryy	.	2.ryy	.
!	!	!	!LO:DY:a	!	!LO:DY:a	!	!	!	!	!	!	!	!	!	!	!	!	!	!
8r	.	8r	p	8r	p	.	.	.	.	4cc\	-mo	4ee-\	-mo}	.	.	.	.	.	.
(32E-\LLL	.	(32e-/LLL	.	(32e-/LLL	.	.	.	.	.	.	.	.	.	.	.	.	.	.	.
32D\	.	32d/	.	32d/	.	.	.	.	.	.	.	.	.	.	.	.	.	.	.
32E-\	.	32e-/	.	32e-/	.	.	.	.	.	.	.	.	.	.	.	.	.	.	.
32F\JJJ)	.	32f/JJJ)	.	32f/JJJ)	.	.	.	.	.	.	.	.	.	.	.	.	.	.	.
!LO:TX:a:t=P:problem:mixed beam	!	!LO:TX:a:t=P:problem:mixed beam	!	!LO:TX:a:t=P:problem:mixed beam	!	!	!	!	!	!	!	!	!	!	!	!	!	!	!
8E-\L	.	8e-`/L	.	8e-`/L	.	.	.	.	.	8r	.	8r	.	.	.	.	.	.	.
8EE-\J	.	8ee-`/J	.	8ee-`/J	.	.	.	.	.	8a-\	et	8cc\	(et)	.	.	.	.	.	.
=58	=58	=58	=58	=58	=58	=58	=58	=58	=58	=58	=58	=58	=58	=58	=58	=58	=58	=58	=58
4E-\	.	4e-/	.	4e-/	.	4r	.	4r	.	8a-\L	ho-	8cc\L	ho-	2.ryy	2.ryy	2.ryy	.	2.ryy	.
.	.	.	.	.	.	.	.	.	.	8g\J	.	8b-\J	.	.	.	.	.	.	.
8r	.	8r	.	8r	.	4r	.	4r	.	4g\	-mo	4b-\	-mo	.	.	.	.	.	.
(32E-\LLL	.	(32e-/LLL	.	(32e-/LLL	.	.	.	.	.	.	.	.	.	.	.	.	.	.	.
32D\	.	32d/	.	32d/	.	.	.	.	.	.	.	.	.	.	.	.	.	.	.
32E-\	.	32e-/	.	32e-/	.	.	.	.	.	.	.	.	.	.	.	.	.	.	.
32F\JJJ)	.	32f/JJJ)	.	32f/JJJ)	.	.	.	.	.	.	.	.	.	.	.	.	.	.	.
!LO:TX:a:t=P:problem:mixed beam	!	!LO:TX:a:t=P:problem:mixed beam	!	!LO:TX:a:t=P:problem:mixed beam	!LO:DY:a	!	!	!	!	!	!	!	!	!	!	!	!	!	!
8E-\L	.	8e-`/L	.	8e-/L	f	8r	.	8r	.	8r	.	8r	.	.	.	.	.	.	.
8EE-\J	.	8g`/J	.	8ee-/J	.	8E-\	(et)	8B-\	(et)	8g\	et	8b-\	(et)	.	.	.	.	.	.
=59	=59	=59	=59	=59	=59	=59	=59	=59	=59	=59	=59	=59	=59	=59	=59	=59	=59	=59	=59
!LO:TX:a:t=P:problem:mixed beam	!	!	!LO:DY:a	!	!	!	!	!	!	!	!	!	!	!	!	!	!	!	!
8AA-\L	.	4a-/	f	4ff\	.	8A-\	ho-	8c\	ho-	8a-\	ho-	8cc\	ho-	2.ryy	2.ryy	2.ryy	.	2.ryy	.
8A-\J	.	.	.	.	.	8A-\	-mo	8c\	-mo	8a-\	-mo}	8ff\	-mo	.	.	.	.	.	.
!LO:TX:a:t=P:problem:mixed beam	!	!	!	!	!	!	!	!	!	!	!	!	!	!	!	!	!	!	!
8B-\L	.	4g/	.	4ee-\	.	4B-\	fac-	4B-\	fac-	4g\	fac-	4ee-\	fac-	.	.	.	.	.	.
8B-\	.	.	.	.	.	.	.	.	.	.	.	.	.	.	.	.	.	.	.
8BB-\	.	4f/	.	4dd\	.	4BB-/	-tus	4B-\	-tus	4f\	-tus	4dd\	-tus	.	.	.	.	.	.
8BB-\J	.	.	.	.	.	.	.	.	.	.	.	.	.	.	.	.	.	.	.
=60	=60	=60	=60	=60	=60	=60	=60	=60	=60	=60	=60	=60	=60	=60	=60	=60	=60	=60	=60
!	!	!	!	!LO:TX:a:t=P:problem:mixed beam	!	!	!	!	!	!	!	!	!	!	!	!	!	!	!
4E-\	.	8e-/L	.	8ee-/L	.	4E-\	eſt	4B-\	eſt.	4g\	eſt	4ee-\	eſt	2.ryy	2.ryy	2.ryy	.	2.ryy	.
.	.	(32e-/LL	.	(32e-/LL	.	.	.	.	.	.	.	.	.	.	.	.	.	.	.
.	.	32f/	.	32f/	.	.	.	.	.	.	.	.	.	.	.	.	.	.	.
.	.	32g/	.	32g/	.	.	.	.	.	.	.	.	.	.	.	.	.	.	.
.	.	32f/JJJ)	.	32f/JJJ)	.	.	.	.	.	.	.	.	.	.	.	.	.	.	.
4r	.	8e-/L	.	8e-/L	.	4r	.	4r	.	4r	.	4r	.	.	.	.	.	.	.
.	.	8g/J	.	8g/J	.	.	.	.	.	.	.	.	.	.	.	.	.	.	.
4r	.	8b-\L	.	8b-\L	.	4r	.	4r	.	4r	.	4r	.	.	.	.	.	.	.
.	.	8ee-\J	.	8ee-\J	.	.	.	.	.	.	.	.	.	.	.	.	.	.	.
=61	=61	=61	=61	=61	=61	=61	=61	=61	=61	=61	=61	=61	=61	=61	=61	=61	=61	=61	=61
!	!LO:DY:a	!	!	!	!	!	!	!	!	!	!	!	!	!	!	!	!	!	!
4E-\	p	8gg\L	.	8gg\L	.	2.r	.	2.r	.	2.r	.	2.r	.	2.ryy	2.ryy	2.ryy	.	2.ryy	.
.	.	8ee-\	.	8ee-\	.	.	.	.	.	.	.	.	.	.	.	.	.	.	.
4EE-/	.	8bb-\	.	8bb-\	.	.	.	.	.	.	.	.	.	.	.	.	.	.	.
.	.	8gg\	.	8gg\	.	.	.	.	.	.	.	.	.	.	.	.	.	.	.
4E-\	.	8ee-\	.	8ee-\	.	.	.	.	.	.	.	.	.	.	.	.	.	.	.
.	.	8b-\J	.	8b-\J	.	.	.	.	.	.	.	.	.	.	.	.	.	.	.
=62	=62	=62	=62	=62	=62	=62	=62	=62	=62	=62	=62	=62	=62	=62	=62	=62	=62	=62	=62
4D\	.	(8.b-/L	.	(8.b-/L	.	2.r	.	2.r	.	2.r	.	2.r	.	2.ryy	2.ryy	2.ryy	.	2.ryy	.
.	.	16a-/Jk)	.	16a-/Jk)	.	.	.	.	.	.	.	.	.	.	.	.	.	.	.
4E-\	.	(16g\LL	.	(16g\LL	.	.	.	.	.	.	.	.	.	.	.	.	.	.	.
.	.	16b-\)	.	16b-\)	.	.	.	.	.	.	.	.	.	.	.	.	.	.	.
.	.	(16ee-\	.	(16ee-\	.	.	.	.	.	.	.	.	.	.	.	.	.	.	.
.	.	16dd\JJ)	.	16dd\JJ)	.	.	.	.	.	.	.	.	.	.	.	.	.	.	.
8r	.	(16ee-\LL	.	(16ee-\LL	.	.	.	.	.	.	.	.	.	.	.	.	.	.	.
.	.	16dd\)	.	16dd\)	.	.	.	.	.	.	.	.	.	.	.	.	.	.	.
8G\	.	(16cc\	.	(16cc\	.	.	.	.	.	.	.	.	.	.	.	.	.	.	.
.	.	16b-\JJ)	.	16b-\JJ)	.	.	.	.	.	.	.	.	.	.	.	.	.	.	.
=63	=63	=63	=63	=63	=63	=63	=63	=63	=63	=63	=63	=63	=63	=63	=63	=63	=63	=63	=63
!LO:TX:a:t=P:problem:mixed beam	!	!	!	!	!	!	!	!	!	!	!	!	!	!	!	!	!	!	!
8A-\L	.	8a-/L	.	8cc\L	.	2.r	.	2.r	.	2.r	.	2.r	.	2.ryy	2.ryy	2.ryy	.	2.ryy	.
8A-\	.	16cc/L	.	16aa-\L	.	.	.	.	.	.	.	.	.	.	.	.	.	.	.
.	.	16a-/JJ	.	16ff\JJ	.	.	.	.	.	.	.	.	.	.	.	.	.	.	.
8B-\	.	4g/	.	4ee-\	.	.	.	.	.	.	.	.	.	.	.	.	.	.	.
8B-\	.	.	.	.	.	.	.	.	.	.	.	.	.	.	.	.	.	.	.
8BB-\	.	4f/	.	4dd\	.	.	.	.	.	.	.	.	.	.	.	.	.	.	.
8BB-\J	.	.	.	.	.	.	.	.	.	.	.	.	.	.	.	.	.	.	.
=64	=64	=64	=64	=64	=64	=64	=64	=64	=64	=64	=64	=64	=64	=64	=64	=64	=64	=64	=64
!	!	!	!	!LO:TX:a:t=P:problem:mixed beam	!LO:DY:a	!	!	!	!	!	!	!	!	!	!	!	!	!	!
8E-\L	.	8e-/L	.	8ee-/L	f	2E-\	Cru-	2B-\	Cru-	2g\	Cru-	2ee-\	Cru-	2.ryy	2.ryy	2.ryy	.	2.ryy	.
(32E-\LL	.	(32e-/LL	.	(32e-/LL	.	.	.	.	.	.	.	.	.	.	.	.	.	.	.
32F\	.	32f/	.	32f/	.	.	.	.	.	.	.	.	.	.	.	.	.	.	.
32G\	.	32g/	.	32g/	.	.	.	.	.	.	.	.	.	.	.	.	.	.	.
32F\JJJ)	.	32f/JJJ)	.	32f/JJJ)	.	.	.	.	.	.	.	.	.	.	.	.	.	.	.
8E-\L	.	8e-`/L	.	8e-`/L	.	.	.	.	.	.	.	.	.	.	.	.	.	.	.
8G\	.	8g`/J	.	8g`/J	.	.	.	.	.	.	.	.	.	.	.	.	.	.	.
8B-\	.	8b-`\L	.	8b-`\L	.	4E-\	-ci-	4B-\	-ci-	4g\	-ci-	4ee-\	-ci-	.	.	.	.	.	.
8e-\J	.	8ee-`\J	.	8ee-`\J	.	.	.	.	.	.	.	.	.	.	.	.	.	.	.
=65	=65	=65	=65	=65	=65	=65	=65	=65	=65	=65	=65	=65	=65	=65	=65	=65	=65	=65	=65
!LO:TX:a:t=P:problem:mixed beam	!	!	!	!	!	!	!	!	!	!	!	!	!	!	!	!	!	!	!
8B-/L	.	8b-/L	.	8b-`/L	.	2BB-/	-fi-	2B-\	-fi-	2f\	-fi-	2dd\	-fi-	2.ryy	2.ryy	2.ryy	.	2.ryy	.
(32BB-/LL	.	(32B-/LL	.	(32B-/LL	.	.	.	.	.	.	.	.	.	.	.	.	.	.	.
32C/	.	32c/	.	32c/	.	.	.	.	.	.	.	.	.	.	.	.	.	.	.
32D/	.	32d/	.	32d/	.	.	.	.	.	.	.	.	.	.	.	.	.	.	.
32C/JJJ)	.	32c/JJJ)	.	32c/JJJ)	.	.	.	.	.	.	.	.	.	.	.	.	.	.	.
8BB-/L	.	8B-`/L	.	8B-`/L	.	.	.	.	.	.	.	.	.	.	.	.	.	.	.
8D/J	.	8d`/	.	8d`/	.	.	.	.	.	.	.	.	.	.	.	.	.	.	.
8F\L	.	8f`/	.	8f`/	.	4BB-/	-xus	4B-\	-xus	4f\	-xus	4dd\	-xus	.	.	.	.	.	.
8B-\J	.	8b-`/J	.	8b-`/J	.	.	.	.	.	.	.	.	.	.	.	.	.	.	.
=66	=66	=66	=66	=66	=66	=66	=66	=66	=66	=66	=66	=66	=66	=66	=66	=66	=66	=66	=66
8E-\L	.	4B-/	.	8g/L	.	8E-\	e-	8B-\	e-	8g\	e-	8ee-\	e-	2.ryy	2.ryy	2.ryy	.	2.ryy	.
8E-\	.	.	.	16f/L	.	8E-\	-ti-	8B-\	-ti-	8g\	-ti-	8ee-\	-ti-	.	.	.	.	.	.
.	.	.	.	16g/JJ	.	.	.	.	.	.	.	.	.	.	.	.	.	.	.
8D\	.	4B-/	.	4a-/	.	4D\	-am	4B-\	-am	4a-\	-am	4ff\	-am	.	.	.	.	.	.
8D\	.	.	.	.	.	.	.	.	.	.	.	.	.	.	.	.	.	.	.
8E-\	.	4B-/	.	4g/	.	4E-\	pro	4B-\	pro	4g\	pro	4ee-\	pro	.	.	.	.	.	.
8E-\J	.	.	.	.	.	.	.	.	.	.	.	.	.	.	.	.	.	.	.
=67	=67	=67	=67	=67	=67	=67	=67	=67	=67	=67	=67	=67	=67	=67	=67	=67	=67	=67	=67
4BB-/	.	8e-/L	.	8g/L	.	4B-\	no-	4B-\	no-	8g\L	no-	8ee-\L	no-	2.ryy	2.ryy	2.ryy	.	2.ryy	.
.	.	8d/J	.	8f/J	.	.	.	.	.	8f\J	.	8dd\J	.	.	.	.	.	.	.
8r	.	8r	.	8r	.	4BB-/	-bis	4B-\	-bis	4f\	-bis	4dd\	-bis	.	.	.	.	.	.
16B-\LL	.	(16b-\LL	.	(16b-\LL	.	.	.	.	.	.	.	.	.	.	.	.	.	.	.
16An\JJ	.	16an\JJ)	.	16an\JJ)	.	.	.	.	.	.	.	.	.	.	.	.	.	.	.
8B-\L	.	8b-`\L	.	8b-`\L	.	8B-\L	ſub	4d\	ſub	8b-\L	ſub	8gg\L	ſub	.	.	.	.	.	.
!	!	!LO:TX:b:t=Verte	!	!	!	!	!	!	!	!	!	!	!	!	!	!	!	!	!
8Bn\J	.	8bn`\J	.	8bn`\J	.	8Bn\J	.	.	.	8a-\J	.	8ff\J	.	.	.	.	.	.	.
=68	=68	=68	=68	=68	=68	=68	=68	=68	=68	=68	=68	=68	=68	=68	=68	=68	=68	=68	=68
!	!	!LO:TX:a:t=P:problem:mixed beam	!	!LO:TX:a:t=P:problem:mixed beam	!	!	!	!	!	!	!	!	!	!	!	!	!	!	!
8c\L	.	8cc/L	.	8cc`/L	.	8c\	pon-	8G/	pon-	8g\	pon-	8ee-\	pon-	2.ryy	2.ryy	2.ryy	.	2.ryy	.
8c\	.	8c/J	.	8c`/J	.	8c\	-ti-	8G/	-ti-	8g\	-ti-	8ee-\	-ti-	.	.	.	.	.	.
8F\	.	8f/L	.	8f/L	.	4F\	-o	4A-/	-o	4f\	-o	4dd\	-o	.	.	.	.	.	.
8F\	.	8f/	.	8f/	.	.	.	.	.	.	.	.	.	.	.	.	.	.	.
8F#X\	.	8f#X/	.	8f#X/	.	4F#X\	pi-	4A-/	pi-	4e-\	pi-	4cc\	pi-	.	.	.	.	.	.
8F#\J	.	8f#/J	.	8f#/J	.	.	.	.	.	.	.	.	.	.	.	.	.	.	.
=69	=69	=69	=69	=69	=69	=69	=69	=69	=69	=69	=69	=69	=69	=69	=69	=69	=69	=69	=69
4G\	.	4g/	.	4g/	.	4G\	-la-	4G/	-la-	8e-\L	-la-	8cc\L	-la-	2.ryy	2.ryy	2.ryy	.	2.ryy	.
.	.	.	.	.	.	.	.	.	.	16d\L	.	16bn\L	.	.	.	.	.	.	.
.	.	.	.	.	.	.	.	.	.	16e-\JJ	.	16cc\JJ	.	.	.	.	.	.	.
8r	.	8r	.	8r	.	4G\	-to	4G/	-to	4d\	-to	4b\	-to	.	.	.	.	.	.
(32G\LLL	.	(32g/LLL	.	(32g/LLL	.	.	.	.	.	.	.	.	.	.	.	.	.	.	.
32F\	.	32f/	.	32f/	.	.	.	.	.	.	.	.	.	.	.	.	.	.	.
32G\	.	32g/	.	32g/	.	.	.	.	.	.	.	.	.	.	.	.	.	.	.
32A-\JJJ)	.	32a-/JJJ)	.	32a-/JJJ)	.	.	.	.	.	.	.	.	.	.	.	.	.	.	.
8G\L	.	8g/L	.	8g/L	.	4r	.	4r	.	4r	.	4r	.	.	.	.	.	.	.
16D\L	.	16d/L	.	16d/L	.	.	.	.	.	.	.	.	.	.	.	.	.	.	.
16BBn\JJ	.	16Bn/JJ	.	16Bn/JJ	.	.	.	.	.	.	.	.	.	.	.	.	.	.	.
=70	=70	=70	=70	=70	=70	=70	=70	=70	=70	=70	=70	=70	=70	=70	=70	=70	=70	=70	=70
!LO:TX:a:t=P:problem:mixed beam	!	!	!	!	!	!	!	!	!	!	!	!	!	!	!	!	!	!	!
8GG\L	.	8G/L	.	8G/L	.	2G\	paſ-	2G/	paſ-	2d\	paſ-	2bn\	paſ-	2.ryy	2.ryy	2.ryy	.	2.ryy	.
8G\J	.	8g/J	.	8g/J	.	.	.	.	.	.	.	.	.	.	.	.	.	.	.
4GG/	.	4G/	.	4G/	.	.	.	.	.	.	.	.	.	.	.	.	.	.	.
4r	.	4r	.	4r	.	4G\	-sus	4G/	-sus	8e-\L	-sus	8cc\L	-sus	.	.	.	.	.	.
.	.	.	.	.	.	.	.	.	.	8f\J	.	8dd\J	.	.	.	.	.	.	.
=71	=71	=71	=71	=71	=71	=71	=71	=71	=71	=71	=71	=71	=71	=71	=71	=71	=71	=71	=71
!	!	!LO:TX:a:t=P:problem:mixed beam	!	!LO:TX:a:t=P:problem:mixed beam	!	!	!	!	!	!	!	!	!	!	!	!	!	!	!
8C\L	.	8c\L	.	8c\L	.	4c\	{paſ-	4G/	{paſ-	8f\L	{paſ-	8dd\L	{paſ-	2.ryy	2.ryy	2.ryy	.	2.ryy	.
(32c\LL	.	(32cc\LL	.	(32cc\LL	.	.	.	.	.	8e-\J	.	8cc\J	.	.	.	.	.	.	.
32Bn\	.	32bn\	.	32bn\	.	.	.	.	.	.	.	.	.	.	.	.	.	.	.
32c\	.	32cc\	.	32cc\	.	.	.	.	.	.	.	.	.	.	.	.	.	.	.
32d\JJJ)	.	32dd\JJJ)	.	32dd\JJJ)	.	.	.	.	.	.	.	.	.	.	.	.	.	.	.
8c\L	.	8cc`/L	.	8cc`/L	.	4C/	-sus	4G/	-sus	4e-\	-sus	4cc\	-sus	.	.	.	.	.	.
8G\	.	8g`/	.	8g`/	.	.	.	.	.	.	.	.	.	.	.	.	.	.	.
8E-\	.	8e-`/	.	8e-`/	.	4r	.	4r	.	4r	.	4r	.	.	.	.	.	.	.
8C\J	.	8c`/J	.	8c`/J	.	.	.	.	.	.	.	.	.	.	.	.	.	.	.
=72	=72	=72	=72	=72	=72	=72	=72	=72	=72	=72	=72	=72	=72	=72	=72	=72	=72	=72	=72
!LO:TX:a:t=P:problem:mixed beam	!	!	!	!	!	!	!	!	!	!	!	!	!	!	!	!	!	!	!
8GG\L	.	8G/L	.	8G/L	.	2G\	paſ-	2G/	paſ-	2d\	paſ-	2bn\	paſ-	2.ryy	2.ryy	2.ryy	.	2.ryy	.
8G\J	.	8g/J	.	8g/J	.	.	.	.	.	.	.	.	.	.	.	.	.	.	.
4GG/	.	4G/	.	4G/	.	.	.	.	.	.	.	.	.	.	.	.	.	.	.
4r	.	4r	.	4r	.	4G\	-sus	4G/	-sus	8e-\L	-sus}	8cc\L	-sus	.	.	.	.	.	.
.	.	.	.	.	.	.	.	.	.	8f\J	.	8dd\J	.	.	.	.	.	.	.
=73	=73	=73	=73	=73	=73	=73	=73	=73	=73	=73	=73	=73	=73	=73	=73	=73	=73	=73	=73
!	!	!LO:TX:a:t=P:problem:mixed beam	!	!LO:TX:a:t=P:problem:mixed beam	!	!	!	!	!	!	!	!	!	!	!	!	!	!	!
8C\L	.	8c\L	.	8c\L	.	4c\	paſ-	4G/	paſ-	8f\L	paſ-	8dd\L	paſ-	2.ryy	2.ryy	2.ryy	.	2.ryy	.
(32c\LL	.	(32cc\LL	.	(32cc\LL	.	.	.	.	.	8e-\J	.	8cc\J	.	.	.	.	.	.	.
32Bn\	.	32bn\	.	32bn\	.	.	.	.	.	.	.	.	.	.	.	.	.	.	.
32c\	.	32cc\	.	32cc\	.	.	.	.	.	.	.	.	.	.	.	.	.	.	.
32d\JJJ)	.	32dd\JJJ)	.	32dd\JJJ)	.	.	.	.	.	.	.	.	.	.	.	.	.	.	.
8c\L	.	8cc`/L	.	8cc`/L	.	4C/	-sus	4G/	-sus}	4e-\	-sus	4cc\	-sus	.	.	.	.	.	.
8G\	.	8g`/	.	8g`/	.	.	.	.	.	.	.	.	.	.	.	.	.	.	.
8E-\	.	8e-`/	.	8e-`/	.	4r	.	4r	.	4r	.	4r	.	.	.	.	.	.	.
8C\J	.	8c`/J	.	8c`/J	.	.	.	.	.	.	.	.	.	.	.	.	.	.	.
=74	=74	=74	=74	=74	=74	=74	=74	=74	=74	=74	=74	=74	=74	=74	=74	=74	=74	=74	=74
8r	.	8r	.	8r	.	2.c\	paſ-	2.c\	paſ-	2.a-\	{paſ-	2.ff\	paſ-	2.ryy	2.ryy	2.ryy	.	2.ryy	.
(32c\LLL	.	(32cc\LLL	.	(32cc\LLL	.	.	.	.	.	.	.	.	.	.	.	.	.	.	.
!	!	!LO:SIC:v:s=32bn\	!	!LO:SIC:v:s=32bn\	!	!	!	!	!	!	!	!	!	!	!	!	!	!	!
32Bn\	.	32b-\	.	32b-\	.	.	.	.	.	.	.	.	.	.	.	.	.	.	.
32c\	.	32cc\	.	32cc\	.	.	.	.	.	.	.	.	.	.	.	.	.	.	.
32d\JJJ)	.	32dd\JJJ)	.	32dd\JJJ)	.	.	.	.	.	.	.	.	.	.	.	.	.	.	.
8c\L	.	8cc`/L	.	8cc`/L	.	.	.	.	.	.	.	.	.	.	.	.	.	.	.
8A-\	.	8a-`/	.	8a-`/	.	.	.	.	.	.	.	.	.	.	.	.	.	.	.
8F\	.	8f`/	.	8f`/	.	.	.	.	.	.	.	.	.	.	.	.	.	.	.
8C\J	.	8c`/J	.	8c`/J	.	.	.	.	.	.	.	.	.	.	.	.	.	.	.
=75	=75	=75	=75	=75	=75	=75	=75	=75	=75	=75	=75	=75	=75	=75	=75	=75	=75	=75	=75
8r	.	8r	.	8r	.	2.C/	-sus}	2.c\	-sus	2.g\	-sus}	2.ee-\	-sus}	2.ryy	2.ryy	2.ryy	.	2.ryy	.
(32c\LLL	.	(32cc\LLL	.	(32cc\LLL	.	.	.	.	.	.	.	.	.	.	.	.	.	.	.
32Bn\	.	32bn\	.	32bn\	.	.	.	.	.	.	.	.	.	.	.	.	.	.	.
32c\	.	32cc\	.	32cc\	.	.	.	.	.	.	.	.	.	.	.	.	.	.	.
32d\JJJ)	.	32dd\JJJ)	.	32dd\JJJ)	.	.	.	.	.	.	.	.	.	.	.	.	.	.	.
8c\L	.	8cc`/L	.	8cc`/L	.	.	.	.	.	.	.	.	.	.	.	.	.	.	.
8G\	.	8g`/	.	8g`/	.	.	.	.	.	.	.	.	.	.	.	.	.	.	.
8E-\	.	8e-`/	.	8e-`/	.	.	.	.	.	.	.	.	.	.	.	.	.	.	.
8C\J	.	8c`/J	.	8c`/J	.	.	.	.	.	.	.	.	.	.	.	.	.	.	.
=76	=76	=76	=76	=76	=76	=76	=76	=76	=76	=76	=76	=76	=76	=76	=76	=76	=76	=76	=76
!LO:TX:a:t=P:problem:mixed beam	!	!	!	!LO:TX:a:t=P:problem:mixed beam	!	!	!	!	!	!	!	!	!	!	!	!	!	!	!
8F\L	.	4f/	.	8d/L	.	8F\	(et)	8A-\	(et)	8f\	(et)	8dd\	(et)	2.ryy	2.ryy	2.ryy	.	2.ryy	.
8F\	.	.	.	8dd/J	.	8F\	ſe-	8A-\	ſe-	8f\	ſe-	8dd\	ſe-	.	.	.	.	.	.
8G\	.	4e-/	.	4cc\	.	4G\	-pul-	4G/	-pul-	4e-\	-pul-	4cc\	-pul-	.	.	.	.	.	.
8G\	.	.	.	.	.	.	.	.	.	.	.	.	.	.	.	.	.	.	.
8GG\	.	4d/	.	4bn\	.	4GG/	-tus	4G/	-tus	4d\	-tus	4bn\	-tus	.	.	.	.	.	.
8GG\J	.	.	.	.	.	.	.	.	.	.	.	.	.	.	.	.	.	.	.
=77	=77	=77	=77	=77	=77	=77	=77	=77	=77	=77	=77	=77	=77	=77	=77	=77	=77	=77	=77
4C/	.	4e-/	.	4cc\	.	4C/	eſt	4G/	eſt	4e-\	eſt	4cc\	eſt	2.ryy	2.ryy	2.ryy	.	2.ryy	.
4r	.	4r	.	4r	.	4C/	paſ-	4G/	paſ-	4e-\	paſ-	4cc\	paſ-	.	.	.	.	.	.
4r	.	4r	.	4r	.	4C/	-sus	4G/	-sus	4e-\	-sus	4cc\	-sus	.	.	.	.	.	.
=78	=78	=78	=78	=78	=78	=78	=78	=78	=78	=78	=78	=78	=78	=78	=78	=78	=78	=78	=78
!LO:TX:a:t=pedal&colon;	!	!	!	!	!	!	!	!	!	!	!	!	!	!	!	!	!	!	!
2.GG/	.	2.r	.	2.r	.	2G\	{paſ-	2G/	{paſ-	(4.d\	{paſ-	(4.bn\	{paſ-	2.ryy	2.ryy	2.ryy	.	2.ryy	.
.	.	.	.	.	.	.	.	.	.	8e-\)	.	8cc\)	.	.	.	.	.	.	.
.	.	.	.	.	.	4G\	-sus}	4G/	-sus}	4f\	-sus}	4dd\	-sus}	.	.	.	.	.	.
=79	=79	=79	=79	=79	=79	=79	=79	=79	=79	=79	=79	=79	=79	=79	=79	=79	=79	=79	=79
4C/	.	2.r	.	2.r	.	8C/	(et)	8G/	(et)	8e-\	(et)	8cc\	(et)	2.ryy	2.ryy	2.ryy	.	2.ryy	.
.	.	.	.	.	.	8C/	ſe-	8G/	ſe-	8e-\	ſe-	8cc\	ſe-	.	.	.	.	.	.
4G\	.	.	.	.	.	4G\	-pul-	4G/	-pul-	4e-\	-pul-	4cc\	-pul-	.	.	.	.	.	.
4GG/	.	.	.	.	.	4GG/	-tus	4G/	-tus	4d\	-tus	4bn\	-tus	.	.	.	.	.	.
=80	=80	=80	=80	=80	=80	=80	=80	=80	=80	=80	=80	=80	=80	=80	=80	=80	=80	=80	=80
2C/	.	2.r	.	2.r	.	2C/	eſt	2G/	eſt	2e-\	eſt	2cc\	eſt	2.ryy	2.ryy	2.ryy	.	2.ryy	.
4r	.	.	.	.	.	4r	.	4r	.	4r	.	4r	.	.	.	.	.	.	.
==	==	==	==	==	==	==	==	==	==	==	==	==	==	==	==	==	==	==	==
*-	*-	*-	*-	*-	*-	*-	*-	*-	*-	*-	*-	*-	*-	*-	*-	*-	*-	*-	*-
!!title: @{OTL};
!!!RDF**kern: > = above
!!!RDF**kern: < = below
!!!RDF**dynam: > = "dim", fontstyle= "bold-italic"
!!!RDF**dynam: < = "cresc", fontstyle= "bold-italic"
!!!RDF**kern: | = vertical stroke
!!!RDF**kern: N = linked
!!!RDF**kern: i = editorial accidental
!!!RDF**kern: l = terminal long
!!!AIN: 1 alto 3 empty 2 oboe 1 organ 1 tenor 2 violn 1 vox
!!!ENC: Andrzej Kubiczek
!!!END: 2020-07-14
!!!EED: Wojciech Jakubiak-Danek
!!!EST: 2021-12-20
!!!URL-scan: http://repozytorium.nifc.pl/skany/pl-cz-nut--iii-109
!!!ONB-nifc: UWAGA: części Mszy: Kyrie, Gloria, Patrem, Et resurrexit, Sanctus, Benedictus, Agnus Dei, Dona nobis
